; HEADER_BLOCK_START
; generated by Creality_Print V5.1.4.10249 on 2024-10-15 at 23:46:18
; total layer number: 29
; filament_density: 1.24
; filament_diameter: 1.75
; max_z_height: 5.80
; HEADER_BLOCK_END

; MINX = 46.51
; MINY = 169.56
; MINZ = 0.00
; MAXX = 71.17
; MAXY = 194.21
; MAXZ = 5.84

; THUMBNAIL_BLOCK_START

;
; THUMBNAIL_BLOCK_END

; THUMBNAIL_BLOCK_START

;
; THUMBNAIL_BLOCK_END

; external perimeters extrusion width = 0.42mm
; perimeters extrusion width = 0.45mm
; infill extrusion width = 0.45mm
; solid infill extrusion width = 0.42mm
; top infill extrusion width = 0.42mm
; first layer extrusion width = 0.50mm

; EXECUTABLE_BLOCK_START
EXCLUDE_OBJECT_DEFINE NAME=Bevel_Gear_1m_32t.stl_id_0_copy_0 CENTER=58.8386,181.885 POLYGON=[[46.5117,180.94],[46.5404,180.621],[46.5642,180.407],[46.9329,178.553],[47.0548,178.145],[47.0884,178.041],[47.8116,176.295],[47.8616,176.197],[48.0642,175.822],[49.1141,174.251],[49.2484,174.083],[49.454,173.837],[50.7903,172.5],[51.0364,172.295],[51.2045,172.16],[52.7758,171.111],[53.1508,170.908],[53.2483,170.858],[54.9943,170.135],[55.0986,170.101],[55.507,169.979],[57.3605,169.611],[57.5743,169.587],[57.8937,169.558],[59.7835,169.558],[60.1029,169.587],[60.3167,169.611],[62.1702,169.979],[62.5786,170.101],[62.6829,170.135],[64.4288,170.858],[64.5264,170.908],[64.9014,171.111],[66.4727,172.16],[66.6407,172.295],[66.8868,172.5],[68.2231,173.837],[68.4287,174.083],[68.563,174.251],[69.6129,175.822],[69.8155,176.197],[69.8655,176.295],[70.5887,178.041],[70.6223,178.145],[70.7442,178.553],[71.1129,180.407],[71.1368,180.621],[71.1654,180.94],[71.1654,182.83],[71.1368,183.149],[71.1129,183.363],[70.7442,185.216],[70.6223,185.625],[70.5887,185.729],[69.8655,187.475],[69.8155,187.573],[69.6129,187.948],[68.563,189.519],[68.4287,189.687],[68.2231,189.933],[66.8868,191.269],[66.6407,191.475],[66.4727,191.609],[64.9014,192.659],[64.5264,192.862],[64.4288,192.912],[62.6829,193.635],[62.5786,193.669],[62.1702,193.791],[60.3167,194.159],[60.1029,194.183],[59.7835,194.212],[57.8937,194.212],[57.5743,194.183],[57.3605,194.159],[55.507,193.791],[55.0986,193.669],[54.9943,193.635],[53.2483,192.912],[53.1508,192.862],[52.7758,192.659],[51.2045,191.609],[51.0364,191.475],[50.7903,191.269],[49.454,189.933],[49.2484,189.687],[49.1141,189.519],[48.0642,187.948],[47.8616,187.573],[47.8116,187.475],[47.0884,185.729],[47.0548,185.625],[46.9329,185.216],[46.5642,183.363],[46.5404,183.149],[46.5117,182.83],[46.5117,180.94]]
M73 P0 R5
M106 S0
M106 P2 S0
;TYPE:Custom
M140 S0
M104 S0 
START_PRINT EXTRUDER_TEMP=220 BED_TEMP=50
M141 S35;set chamber_temperature
G90
G21
M83 ; use relative distances for extrusion
; filament start gcode
M106 S0
;LAYER_CHANGE
;Z:0.2
;HEIGHT:0.2
;BEFORE_LAYER_CHANGE
;0.2
G92 E0

G1 E-.6 F2400
;AFTER_LAYER_CHANGE
;0.2
;_SET_FAN_SPEED_CHANGING_LAYER
SET_VELOCITY_LIMIT ACCEL=1000 ACCEL_TO_DECEL=1000
SET_VELOCITY_LIMIT SQUARE_CORNER_VELOCITY=20
; printing object Bevel Gear 1m 32t.stl id:0 copy 0
EXCLUDE_OBJECT_START NAME=Bevel_Gear_1m_32t.stl_id_0_copy_0
G1 X60.805 Y184.973 F30000
G1 Z.4
G1 Z.2
G1 E.6 F2400
;TYPE:Inner wall
;WIDTH:0.5
G1 F3000
G1 X60.596 Y185.104 E.00891
G3 X58.316 Y178.252 I-1.758 J-3.22 E.46344
G1 X58.577 Y178.224 E.00946
G3 X61.037 Y184.821 I.262 J3.66 E.34052
G1 X60.839 Y184.951 E.00854
G1 X60.925 Y184.327 F30000
;TYPE:Outer wall
G1 F3000
G1 X60.763 Y184.455 E.00747
G3 X58.381 Y178.705 I-1.924 J-2.571 E.42225
G1 X58.609 Y178.68 E.00828
G3 X60.954 Y184.3 I.229 J3.204 E.28918
G1 E-.42 F2400
;WIPE_START
G1 F3000
G1 X60.763 Y184.455 E-.04441
G1 X60.378 Y184.705 E-.08249
G1 X60.11 Y184.827 E-.0531
;WIPE_END
G1 X57.896 Y191.201 Z.6 F30000
G1 Z.2
G1 E.6 F2400
;TYPE:Inner wall
G1 F3000
G1 X57.358 Y191.127 E.0196
G3 X58.777 Y172.518 I1.487 J-9.246 E1.0058
G1 X59.104 Y172.521 E.01184
G3 X58.034 Y191.211 I-.259 J9.361 E1.08219
M73 P1 R5
G1 X57.936 Y191.204 E.00353
G1 X58.939 Y191.704 F30000
;TYPE:Outer wall
G1 F3000
G1 X58.759 Y191.703 E.00652
G3 X58.773 Y172.06 I.087 J-9.821 E1.10829
M73 P1 R4
G1 X59.118 Y172.064 E.01244
G3 X59.453 Y191.684 I-.272 J9.818 E1.08228
G1 X58.979 Y191.703 E.01711
G1 E-.42 F2400
;WIPE_START
G1 F3000
G1 X58.759 Y191.703 E-.03972
G1 X57.994 Y191.673 E-.1377
G1 X57.98 Y191.672 E-.00258
;WIPE_END
G1 X61.826 Y185.079 Z.6 F30000
G1 X66.612 Y176.875 Z.6
G1 Z.2
G1 E.6 F2400
;TYPE:Bottom surface
;WIDTH:0.506524
G1 F6300
G1 X64.952 Y175.216 E.08594
G2 X62.866 Y173.785 I-6.479 J7.212 E.0929
G1 X66.932 Y177.851 E.21059
G3 X67.406 Y178.98 I-6.359 J3.331 E.0449
G1 X61.744 Y173.319 E.29322
G2 X60.83 Y173.061 I-2.595 J7.436 E.0348
G1 X67.663 Y179.893 E.35384
G3 X67.802 Y180.688 I-5.203 J1.324 E.0296
G1 X60.032 Y172.918 E.40242
G2 X59.314 Y172.855 I-.898 J6.177 E.02641
G1 X67.872 Y181.414 E.44325
G3 X67.88 Y182.077 I-5.817 J.395 E.02429
G1 X58.648 Y172.845 E.47811
M73 P2 R4
G2 X58.023 Y172.876 I.036 J7.17 E.02293
G1 X67.846 Y182.698 E.50872
G3 X67.775 Y183.284 I-3.921 J-.174 E.02161
G1 X57.439 Y172.947 E.53533
G2 X56.89 Y173.054 I.442 J3.726 E.02049
G1 X67.671 Y183.835 E.55831
G3 X67.537 Y184.356 I-3.522 J-.627 E.01974
G1 X56.364 Y173.184 E.57864
G1 X55.867 Y173.343 E.01909
G1 X67.383 Y184.858 E.5964
G3 X67.2 Y185.331 I-8.636 J-3.066 E.01857
G1 X62.68 Y180.811 E.23411
G3 X62.817 Y181.604 I-6.554 J1.544 E.02949
G1 X67 Y185.787 E.21663
G3 X66.774 Y186.216 I-2.95 J-1.282 E.01779
G1 X62.808 Y182.25 E.20541
G3 X62.717 Y182.815 I-2.671 J-.14 E.02099
G1 X66.535 Y186.632 E.19772
G3 X66.279 Y187.032 I-3.747 J-2.118 E.01739
G1 X62.562 Y183.315 E.1925
G1 X62.356 Y183.765 E.01812
G1 X66.001 Y187.41 E.18878
G3 X65.704 Y187.769 I-3.38 J-2.499 E.01706
G1 X62.103 Y184.168 E.18648
G3 X61.816 Y184.537 I-2.596 J-1.724 E.01713
G1 X65.395 Y188.115 E.18534
G1 X65.066 Y188.442 E.01698
G1 X61.489 Y184.864 E.18528
G3 X61.119 Y185.151 I-2.103 J-2.328 E.01713
G1 X64.724 Y188.756 E.18668
G3 X64.359 Y189.046 I-2.811 J-3.158 E.0171
G1 X60.716 Y185.404 E.18865
G1 X60.266 Y185.609 E.01812
G1 X63.98 Y189.322 E.19232
G3 X63.587 Y189.586 I-1.945 J-2.476 E.01732
G1 X59.76 Y185.758 E.19821
G3 X59.202 Y185.856 I-.733 J-2.533 E.02077
G1 X63.169 Y189.823 E.20545
M73 P3 R4
G3 X62.739 Y190.048 I-2.238 J-3.762 E.0178
G1 X58.555 Y185.865 E.21665
G3 X57.758 Y185.724 I.259 J-3.778 E.0297
G1 X62.442 Y190.407 E.24256
G1 E-.42 F2400
;WIPE_START
G1 F6300
G1 X61.735 Y189.7 E-.18
;WIPE_END
G1 X60.741 Y182.133 Z.6 F30000
G1 X60.247 Y178.378 Z.6
G1 Z.2
G1 E.6 F2400
G1 F6300
G1 X55.395 Y173.525 E.25133
G2 X54.937 Y173.723 I1.481 J4.05 E.01827
G1 X59.118 Y177.904 E.21652
G1 X58.472 Y177.914 E.02367
G1 X54.507 Y173.949 E.20534
G2 X54.091 Y174.189 I1.375 J2.862 E.01759
G1 X57.914 Y178.012 E.19802
G2 X57.414 Y178.168 I.29 J1.817 E.01925
G1 X53.693 Y174.446 E.19273
G2 X53.316 Y174.725 I1.666 J2.64 E.01718
G1 X56.958 Y178.367 E.1886
G2 X56.556 Y178.62 I.972 J1.99 E.01744
G1 X52.952 Y175.016 E.18664
G2 X52.607 Y175.327 I3.678 J4.431 E.01701
G1 X56.187 Y178.907 E.18541
G1 X55.859 Y179.235 E.01698
G1 X52.282 Y175.658 E.18526
G2 X51.972 Y176.004 I2.166 J2.253 E.01702
G1 X55.573 Y179.605 E.1865
G2 X55.32 Y180.007 I2.636 J1.938 E.01743
G1 X51.673 Y176.361 E.18885
G1 X51.4 Y176.743 E.01721
G1 X55.114 Y180.457 E.19237
G1 X54.961 Y180.96 E.01924
G1 X51.138 Y177.137 E.19801
G2 X50.901 Y177.555 I3.437 J2.22 E.01763
G1 X54.867 Y181.521 E.20538
G1 X54.858 Y182.168 E.02369
G1 X50.679 Y177.989 E.21646
G2 X50.474 Y178.439 I3.95 J2.069 E.01814
G1 X55.335 Y183.3 E.25176
G1 E-.42 F2400
;WIPE_START
G1 F6300
G1 X54.628 Y182.593 E-.18
;WIPE_END
G1 X50.133 Y178.754 Z.6 F30000
G1 Z.2
M73 P4 R4
G1 E.6 F2400
G1 F6300
G1 X61.809 Y190.43 E.60472
G3 X61.306 Y190.583 I-1.273 J-3.288 E.01927
G1 X50.14 Y179.417 E.57828
G2 X50.009 Y179.941 I3.408 J1.134 E.01981
G1 X60.783 Y190.715 E.55799
G3 X60.235 Y190.823 I-1.252 J-4.939 E.02047
G1 X49.903 Y180.491 E.53509
G2 X49.828 Y181.072 I5.171 J.959 E.02147
G1 X59.646 Y190.89 E.50848
G3 X59.026 Y190.925 I-.549 J-4.191 E.02278
G1 X49.794 Y181.693 E.47812
G2 X49.804 Y182.359 I6.071 J.239 E.0244
G1 X58.365 Y190.919 E.44335
G3 X57.636 Y190.847 I.292 J-6.608 E.02682
G1 X49.872 Y183.082 E.40212
G2 X50.016 Y183.882 I17.096 J-2.671 E.02977
G1 X56.839 Y190.705 E.35334
G3 X55.928 Y190.45 I2.845 J-11.916 E.03463
G1 X50.274 Y184.796 E.29281
G2 X50.753 Y185.93 I7.434 J-2.469 E.04514
G1 X54.805 Y189.983 E.20987
G3 X52.641 Y188.474 I4.058 J-8.128 E.09695
G1 X51.063 Y186.896 E.08174
G1 E-.42 F2400
;WIPE_START
G1 F6300
G1 X51.77 Y187.603 E-.18
;WIPE_END
G1 X56.472 Y181.591 Z.6 F30000
G1 X62.636 Y173.708 Z.6
G1 Z.2
G1 E.6 F2400
;TYPE:Gap infill
;WIDTH:0.234345
G1 F3000
G1 X62.419 Y173.559 E.00397
;WIDTH:0.217475
G1 X62.203 Y173.41 E.00362
G1 E-.42 F2400
;WIPE_START
G1 F3000
G1 X62.419 Y173.559 E-.18
;WIPE_END
G1 X66.671 Y177.227 Z.6 F30000
G1 Z.2
G1 E.6 F2400
;WIDTH:0.0977705
G1 F3000
G1 X66.488 Y176.999 E.00127
G1 E-.42 F2400
;WIPE_START
M73 P5 R4
G1 F3000
G1 X66.671 Y177.227 E-.18
;WIPE_END
G1 X62.622 Y180.577 Z.6 F30000
G1 Z.2
G1 E.6 F2400
;WIDTH:0.213587
G1 F3000
G1 X62.565 Y180.484 E.00147
;WIDTH:0.189084
G1 X62.501 Y180.392 E.00129
;WIDTH:0.152558
G1 X62.437 Y180.3 E.00097
;WIDTH:0.134295
G1 X62.373 Y180.208 E.00081
G1 E-.5104 F2400
;WIPE_START
G1 F3000
G1 X62.437 Y180.3 E-.0896
;WIPE_END
G1 X57.525 Y185.667 Z.6 F30000
G1 Z.2
G1 E.6 F2400
;WIDTH:0.215007
G1 F3000
G1 X57.438 Y185.613 E.0014
;WIDTH:0.191268
G1 X57.343 Y185.547 E.00134
;WIDTH:0.153869
G1 X57.249 Y185.482 E.001
;WIDTH:0.135169
G1 X57.155 Y185.417 E.00083
G1 E-.50843 F2400
;WIPE_START
G1 F3000
G1 X57.249 Y185.482 E-.09157
;WIPE_END
G1 X55.477 Y190.361 Z.6 F30000
G1 Z.2
G1 E.6 F2400
;WIDTH:0.146415
G1 F3000
G1 X55.331 Y190.26 E.00145
;WIDTH:0.186553
G1 X55.185 Y190.159 E.00202
;WIDTH:0.206622
G1 X55.038 Y190.058 E.0023
G1 E-.45779 F2400
;WIPE_START
G1 F3000
G1 X55.185 Y190.159 E-.14221
;WIPE_END
G1 X51.187 Y186.772 Z.6 F30000
G1 Z.2
G1 E.6 F2400
;WIDTH:0.143331
G1 F3000
G1 X51.021 Y186.561 E.00213
; stop printing object Bevel Gear 1m 32t.stl id:0 copy 0
;TIME_ELAPSED:16.142235

M106 S255
;LAYER_CHANGE
;Z:0.4
;HEIGHT:0.2
;BEFORE_LAYER_CHANGE
;0.4
G92 E0

G1 E-.42 F2400
;WIPE_START
G1 F3000
G1 X51.187 Y186.772 E-.18
;WIPE_END
EXCLUDE_OBJECT_END NAME=Bevel_Gear_1m_32t.stl_id_0_copy_0
;AFTER_LAYER_CHANGE
;0.4
;_SET_FAN_SPEED_CHANGING_LAYER
SET_VELOCITY_LIMIT ACCEL=10000 ACCEL_TO_DECEL=10000
M140 S50 ; set bed temperature
; printing object Bevel Gear 1m 32t.stl id:0 copy 0
EXCLUDE_OBJECT_START NAME=Bevel_Gear_1m_32t.stl_id_0_copy_0
G17
G3 Z.6 I.252 J1.191 P1  F30000
G1 X60.682 Y184.759 Z.6
G1 Z.4
G1 E.6 F2400
SET_VELOCITY_LIMIT ACCEL=5000 ACCEL_TO_DECEL=5000
;TYPE:Inner wall
;WIDTH:0.45
G1 F10699
G1 X60.473 Y184.878 E.00775
G3 X58.113 Y178.548 I-1.643 J-2.992 E.37676
G3 X58.771 Y178.472 I.749 J3.617 E.02134
G3 X60.71 Y184.735 I.058 J3.413 E.2827
SET_VELOCITY_LIMIT ACCEL=10000 ACCEL_TO_DECEL=10000
G1 X60.808 Y184.176 F30000
SET_VELOCITY_LIMIT ACCEL=5000 ACCEL_TO_DECEL=5000
;TYPE:Outer wall
;WIDTH:0.42
G1 F10699
G1 X60.47 Y184.423 E.01248
G3 X58.196 Y178.931 I-1.639 J-2.538 E.31525
G3 X58.785 Y178.864 I.665 J3.212 E.01769
G3 X60.834 Y184.147 I.046 J3.021 E.21887
SET_VELOCITY_LIMIT ACCEL=10000 ACCEL_TO_DECEL=10000
G1 E-.42 F2400
;WIPE_START
G1 F12000
G1 X60.47 Y184.423 E-.08231
G1 X60.287 Y184.538 E-.03882
G1 X59.99 Y184.674 E-.05887
;WIPE_END
G1 X58.311 Y191.685 Z.8 F30000
G1 Z.4
G1 E.6 F2400
SET_VELOCITY_LIMIT ACCEL=5000 ACCEL_TO_DECEL=5000
;TYPE:Inner wall
;WIDTH:0.45
G1 F10699
G1 X57.968 Y191.664 E.01106
G3 X58.38 Y172.073 I.871 J-9.781 E.94921
G3 X59.121 Y172.066 I.466 J10.578 E.02383
G3 X58.783 Y191.702 I-.281 J9.816 E.98481
G1 X58.351 Y191.686 E.0139
SET_VELOCITY_LIMIT ACCEL=10000 ACCEL_TO_DECEL=10000
G1 X58.963 Y192.095 F30000
SET_VELOCITY_LIMIT ACCEL=5000 ACCEL_TO_DECEL=5000
;TYPE:Outer wall
;WIDTH:0.42
G1 F3364.253
G1 X58.78 Y192.094 E.00545
G1 F3281.123
G1 X57.933 Y192.059 E.02525
G1 F3280.052
G1 X57.244 Y191.974 E.02068
G1 X56.839 Y191.902 E.01225
G1 X56.431 Y191.812 E.01245
G1 F3278.114
G1 X55.727 Y191.614 E.02178
G1 F3272.362
G1 X54.93 Y191.322 E.02528
G1 X54.323 Y191.048 E.01984
G1 F3280.219
G1 X53.95 Y190.854 E.01252
G1 F3274.081
G1 X53.563 Y190.632 E.01329
G1 X53.012 Y190.275 E.01956
G1 F3275.925
G1 X52.348 Y189.772 E.02481
G1 F3276.249
G1 X51.818 Y189.305 E.02104
G1 X51.523 Y189.014 E.01234
G1 F3281.283
G1 X51.236 Y188.707 E.01252
G1 F3280.789
G1 X50.778 Y188.159 E.02127
G1 X50.301 Y187.493 E.0244
G1 X49.933 Y186.887 E.02112
G1 X49.74 Y186.528 E.01214
G1 F3273.451
G1 X49.388 Y185.761 E.02514
G1 X49.153 Y185.129 E.02008
G1 F3276.793
G1 X49.028 Y184.731 E.01243
G1 F3272.571
G1 X48.825 Y183.899 E.02551
G1 X48.717 Y183.259 E.01933
G1 F3281.044
G1 X48.668 Y182.833 E.01277
G1 F3282.172
G1 X48.626 Y182.085 E.02232
G1 X48.639 Y181.317 E.02288
G1 F3281.077
G1 X48.671 Y180.9 E.01246
G1 F3278.062
G1 X48.765 Y180.195 E.02119
G1 X48.935 Y179.383 E.02471
G1 F3280.88
G1 X49.134 Y178.697 E.02128
G1 F3281.201
G1 X49.269 Y178.311 E.01218
G1 F3276.861
G1 X49.426 Y177.916 E.01266
G1 X49.718 Y177.285 E.02071
G1 F3280.52
G1 X50.11 Y176.579 E.02405
G1 F3272.723
G1 X50.349 Y176.204 E.01325
G1 X50.739 Y175.661 E.01991
G1 F3274.188
G1 X51.294 Y174.998 E.02575
G1 F3249.143
G1 X51.816 Y174.467 E.02218
G1 X52.064 Y174.24 E.01001
G1 F3271.898
G1 X52.728 Y173.7 E.02549
G1 X53.28 Y173.315 E.02005
G1 F3278.532
G1 X53.623 Y173.102 E.01203
G1 F3277.374
G1 X53.982 Y172.898 E.0123
G1 F3275.757
G1 X54.611 Y172.586 E.02091
G1 X55.384 Y172.272 E.02485
G1 F3280.615
G1 X56.069 Y172.053 E.02142
G1 F3281.898
G1 X56.455 Y171.952 E.01188
G1 F3280.346
G1 X57.244 Y171.795 E.02396
G1 X57.933 Y171.711 E.02067
G1 F3281.159
G1 X58.362 Y171.681 E.01281
G1 F3284.713
G1 X59.132 Y171.674 E.02294
G1 F3283.983
G1 X59.903 Y171.726 E.02302
G1 F3274.859
G1 X60.337 Y171.781 E.01303
G1 F3272.371
G1 X60.953 Y171.892 E.01864
G1 X61.797 Y172.108 E.02595
G1 F3276.963
G1 X62.225 Y172.248 E.01341
G1 F3274.634
G1 X62.815 Y172.476 E.01884
G1 X63.586 Y172.841 E.02541
G1 F3280.085
G1 X64.193 Y173.186 E.0208
G1 X64.532 Y173.404 E.01201
G1 X64.881 Y173.649 E.0127
G1 X65.423 Y174.076 E.02055
G1 X66.041 Y174.641 E.02494
G1 X66.316 Y174.926 E.0118
G1 X66.777 Y175.456 E.02092
G1 F3274.115
G1 X67.287 Y176.143 E.02549
G1 X67.65 Y176.717 E.02023
G1 F3280.847
G1 X67.863 Y177.099 E.01303
G1 F3275.103
G1 X68.062 Y177.496 E.01323
G1 F3272.816
G1 X68.314 Y178.071 E.0187
G1 X68.603 Y178.885 E.02573
G1 F3277.197
G1 X68.711 Y179.263 E.01171
G1 F3270.499
G1 X68.867 Y179.942 E.02075
G1 X68.993 Y180.778 E.02518
G1 F3277.173
G1 X69.045 Y181.471 E.0207
G1 X69.054 Y181.885 E.01233
G1 X69.045 Y182.297 E.01227
G1 X68.993 Y182.992 E.02076
G1 F3270.418
G1 X68.867 Y183.828 E.02518
G1 X68.711 Y184.505 E.02069
G1 F3277.195
G1 X68.603 Y184.885 E.01177
G1 F3272.906
G1 X68.314 Y185.699 E.02573
G1 X68.062 Y186.273 E.01867
M73 P6 R4
G1 F3274.905
G1 X67.863 Y186.67 E.01323
G1 F3276.217
G1 X67.625 Y187.093 E.01446
G1 F3274.165
G1 X67.287 Y187.627 E.01882
G1 X66.777 Y188.313 E.02546
G1 F3280.526
G1 X66.324 Y188.835 E.02059
G1 X66.041 Y189.129 E.01216
G1 X65.423 Y189.694 E.02494
G1 X64.88 Y190.121 E.02058
G1 X64.532 Y190.366 E.01268
G1 X64.194 Y190.583 E.01196
G1 X63.586 Y190.929 E.02084
G1 F3275.648
G1 X62.815 Y191.294 E.02541
G1 X62.179 Y191.538 E.02029
G1 F3280.487
G1 X61.762 Y191.672 E.01305
G1 F3274.968
G1 X61.336 Y191.789 E.01316
G1 F3272.462
G1 X60.724 Y191.924 E.01867
G1 X59.866 Y192.048 E.02582
G1 F3279.476
G1 X59.416 Y192.078 E.01343
G1 F3394.909
G1 X59.003 Y192.093 E.01231
SET_VELOCITY_LIMIT ACCEL=10000 ACCEL_TO_DECEL=10000
G1 E-.42 F2400
;WIPE_START
G1 F3394.909
G1 X58.78 Y192.094 E-.04011
G1 X58.004 Y192.062 E-.13989
;WIPE_END
G1 X64.738 Y188.47 Z.8 F30000
G1 X66.893 Y187.321 Z.8
G1 Z.4
G1 E.6 F2400
;TYPE:Internal solid infill
;WIDTH:0.424596
G1 F10699
G1 X65.287 Y188.926 E.06845
G3 X63.412 Y190.261 I-6.383 J-6.978 E.06959
G1 X67.201 Y186.473 E.16154
G2 X67.703 Y185.431 I-9.509 J-5.226 E.0349
G1 X62.391 Y190.743 E.22651
G3 X61.57 Y191.024 I-2.247 J-5.217 E.0262
G1 X67.988 Y184.606 E.27365
G2 X68.171 Y183.884 I-4.759 J-1.59 E.02251
G1 X60.838 Y191.217 E.31267
G3 X60.176 Y191.338 I-2.289 J-10.572 E.02029
