; HEADER_BLOCK_START
; generated by Creality_Print V5.1.4.10249 on 2024-11-10 at 19:30:39
; total layer number: 135
; filament_density: 1.24
; filament_diameter: 1.75
; max_z_height: 27.00
; HEADER_BLOCK_END

; MINX = 143.07
; MINY = 142.00
; MINZ = 0.00
; MAXX = 159.07
; MAXY = 158.00
; MAXZ = 27.00

; THUMBNAIL_BLOCK_START

;
; THUMBNAIL_BLOCK_END

; THUMBNAIL_BLOCK_START

;
; THUMBNAIL_BLOCK_END

; external perimeters extrusion width = 0.42mm
; perimeters extrusion width = 0.45mm
; infill extrusion width = 0.45mm
; solid infill extrusion width = 0.42mm
; top infill extrusion width = 0.42mm
; first layer extrusion width = 0.50mm

; EXECUTABLE_BLOCK_START
EXCLUDE_OBJECT_DEFINE NAME=coupling_motor_lead_screw.stl_id_0_copy_0 CENTER=151.067,150 POLYGON=[[143.067,150],[143.135,148.956],[143.339,147.929],[143.676,146.939],[144.138,146],[144.72,145.13],[145.41,144.343],[146.197,143.653],[147.067,143.072],[148.005,142.609],[148.996,142.273],[150.022,142.068],[151.067,142],[152.111,142.068],[153.137,142.273],[154.128,142.609],[155.067,143.072],[155.937,143.653],[156.724,144.343],[157.414,145.13],[157.995,146],[158.458,146.939],[158.794,147.929],[158.998,148.956],[159.067,150],[158.998,151.044],[158.794,152.071],[158.458,153.061],[157.995,154],[157.414,154.87],[156.724,155.657],[155.937,156.347],[155.067,156.928],[154.128,157.391],[153.137,157.727],[152.111,157.932],[151.067,158],[150.022,157.932],[148.996,157.727],[148.005,157.391],[147.067,156.928],[146.197,156.347],[145.41,155.657],[144.72,154.87],[144.138,154],[143.676,153.061],[143.339,152.071],[143.135,151.044],[143.067,150]]
M73 P0 R14
M106 S0
M106 P2 S0
;TYPE:Custom
M140 S0
M104 S0 
START_PRINT EXTRUDER_TEMP=220 BED_TEMP=50
M141 S35;set chamber_temperature
G90
G21
M83 ; use relative distances for extrusion
; filament start gcode
M106 S0
;LAYER_CHANGE
;Z:0.2
;HEIGHT:0.2
;BEFORE_LAYER_CHANGE
;0.2
G92 E0

G1 E-.6 F2400
;AFTER_LAYER_CHANGE
;0.2
;_SET_FAN_SPEED_CHANGING_LAYER
SET_VELOCITY_LIMIT ACCEL=1000 ACCEL_TO_DECEL=1000
SET_VELOCITY_LIMIT SQUARE_CORNER_VELOCITY=20
; printing object coupling_motor_lead_screw.stl id:0 copy 0
EXCLUDE_OBJECT_START NAME=coupling_motor_lead_screw.stl_id_0_copy_0
G1 X155.018 Y152.965 F30000
G1 Z.4
G1 Z.2
G1 E.6 F2400
;TYPE:Inner wall
;WIDTH:0.5
G1 F3000
G1 X154.733 Y153.342 E.01707
G1 X154.056 Y153.959 E.03305
G1 X153.278 Y154.441 E.03305
G1 X152.424 Y154.771 E.03305
G1 X151.524 Y154.94 E.03305
G1 X150.609 Y154.94 E.03305
G1 X149.709 Y154.771 E.03305
G1 X148.856 Y154.441 E.03305
G1 X148.077 Y153.959 E.03305
G1 X147.401 Y153.342 E.03305
G1 X146.849 Y152.611 E.03305
G1 X146.441 Y151.792 E.03305
G1 X146.19 Y150.912 E.03305
G1 X146.106 Y150 E.03305
G1 X146.19 Y149.088 E.03305
G1 X146.441 Y148.208 E.03305
G1 X146.849 Y147.388 E.03305
G1 X147.395 Y146.665 E.03272
G1 X148.076 Y146.042 E.03335
G1 X148.856 Y145.559 E.03308
G1 X149.709 Y145.229 E.03305
G1 X150.609 Y145.06 E.03305
G1 X151.524 Y145.06 E.03305
G1 X152.424 Y145.229 E.03305
G1 X153.278 Y145.559 E.03305
G1 X154.056 Y146.041 E.03305
G1 X154.733 Y146.658 E.03305
G1 X155.284 Y147.389 E.03305
G1 X155.692 Y148.208 E.03305
G1 X155.943 Y149.088 E.03305
G1 X156.027 Y150 E.03305
G1 X155.943 Y150.912 E.03305
G1 X155.692 Y151.792 E.03305
G1 X155.284 Y152.611 E.03305
G1 X155.042 Y152.933 E.01454
G1 X154.901 Y152.356 F30000
;TYPE:Outer wall
G1 F3000
G1 X154.894 Y152.37 E.00054
G1 X154.394 Y153.033 E.02999
G1 X153.78 Y153.592 E.02999
G1 X153.073 Y154.03 E.02999
G1 X152.299 Y154.33 E.02999
G1 X151.482 Y154.483 E.02999
G1 X150.651 Y154.483 E.02999
G1 X149.835 Y154.33 E.02999
G1 X149.06 Y154.03 E.02999
G1 X148.354 Y153.592 E.02999
G1 X147.74 Y153.033 E.02999
G1 X147.239 Y152.37 E.02999
G1 X146.869 Y151.626 E.02999
G1 X146.642 Y150.827 E.02999
G1 X146.565 Y150 E.02999
G1 X146.642 Y149.173 E.02999
G1 X146.869 Y148.374 E.02999
G1 X147.239 Y147.63 E.02999
G1 X147.487 Y147.302 E.01485
G1 X147.735 Y146.974 E.01483
G1 X148.353 Y146.408 E.03029
G1 X149.06 Y145.97 E.03001
G1 X149.835 Y145.67 E.02999
G1 X150.651 Y145.517 E.02999
G1 X151.482 Y145.517 E.02999
G1 X152.299 Y145.67 E.02999
G1 X153.073 Y145.97 E.02999
G1 X153.78 Y146.408 E.02999
G1 X154.394 Y146.967 E.02999
G1 X154.894 Y147.63 E.02999
G1 X155.264 Y148.374 E.02999
G1 X155.492 Y149.173 E.02999
G1 X155.568 Y150 E.02999
G1 X155.492 Y150.827 E.02999
G1 X155.264 Y151.626 E.02999
G1 X154.919 Y152.321 E.02801
G1 E-.42 F2400
;WIPE_START
G1 F3000
G1 X154.894 Y152.37 E-.00989
G1 X154.394 Y153.033 E-.14953
G1 X154.309 Y153.11 E-.02058
;WIPE_END
G1 X153.599 Y145.51 Z.6 F30000
G1 X153.388 Y143.263 Z.6
G1 Z.2
G1 E.6 F2400
;TYPE:Inner wall
G1 F3000
G1 X153.799 Y143.403 E.01567
G1 X154.637 Y143.816 E.03373
G1 X155.414 Y144.335 E.03373
G1 X156.116 Y144.95 E.0337
G1 X156.738 Y145.662 E.03414
G1 X157.251 Y146.429 E.03333
G1 X157.664 Y147.267 E.03373
G1 X157.964 Y148.152 E.03373
G1 X158.147 Y149.068 E.03373
G1 X158.208 Y149.999 E.0337
G1 X158.145 Y150.943 E.03414
G1 X157.964 Y151.848 E.03333
G1 X157.664 Y152.732 E.0337
G1 X157.245 Y153.58 E.03414
G1 X156.732 Y154.347 E.03333
G1 X156.116 Y155.05 E.03373
G1 X155.414 Y155.665 E.03373
G1 X154.637 Y156.184 E.03373
G1 X153.799 Y156.597 E.03373
G1 X152.915 Y156.898 E.03373
G1 X151.999 Y157.08 E.03373
G1 X151.067 Y157.141 E.03373
G1 X150.135 Y157.08 E.03373
G1 X149.218 Y156.898 E.03373
G1 X148.335 Y156.598 E.0337
G1 X147.487 Y156.178 E.03414
G1 X146.719 Y155.665 E.03333
G1 X146.018 Y155.05 E.0337
G1 X145.395 Y154.338 E.03414
G1 X144.882 Y153.571 E.03333
G1 X144.469 Y152.733 E.0337
G1 X144.167 Y151.837 E.03414
G1 X143.987 Y150.932 E.03333
G1 X143.926 Y150.001 E.0337
G1 X143.989 Y149.057 E.03414
G1 X144.169 Y148.152 E.03333
G1 X144.469 Y147.268 E.0337
G1 X144.888 Y146.42 E.03414
G1 X145.401 Y145.653 E.03333
G1 X146.017 Y144.95 E.03373
G1 X146.719 Y144.335 E.03373
G1 X147.496 Y143.816 E.03373
G1 X148.334 Y143.403 E.03373
G1 X149.218 Y143.102 E.03373
G1 X150.134 Y142.92 E.0337
G1 X151.078 Y142.86 E.03414
G1 X151.366 Y142.879 E.01045
G1 X151.999 Y142.92 E.02288
G1 X152.915 Y143.102 E.03373
G1 X153.351 Y143.25 E.01661
G1 X153.019 Y142.657 F30000
;TYPE:Outer wall
G1 F3000
G1 X153.033 Y142.66 E.00052
G1 X153.975 Y142.979 E.03589
G1 X154.866 Y143.419 E.03589
G1 X155.693 Y143.971 E.03589
G1 X156.44 Y144.626 E.03588
G1 X157.102 Y145.383 E.03631
G1 X157.648 Y146.2 E.03548
G1 X158.087 Y147.092 E.03589
G1 X158.407 Y148.033 E.03589
G1 X158.601 Y149.008 E.03589
G1 X158.666 Y150 E.03588
G1 X158.599 Y151.003 E.03631
G1 X158.407 Y151.967 E.03548
G1 X158.087 Y152.908 E.03588
G1 X157.641 Y153.809 E.03631
G1 X157.096 Y154.626 E.03548
G1 X156.44 Y155.373 E.03589
G1 X155.693 Y156.029 E.03589
G1 X154.866 Y156.581 E.03589
G1 X153.975 Y157.021 E.03589
G1 X153.033 Y157.34 E.03589
G1 X152.059 Y157.534 E.03589
G1 X151.067 Y157.599 E.03589
G1 X150.075 Y157.534 E.03589
G1 X149.1 Y157.34 E.03589
G1 X148.159 Y157.021 E.03588
G1 X147.258 Y156.575 E.03631
G1 X146.441 Y156.029 E.03548
G1 X145.694 Y155.374 E.03588
G1 X145.032 Y154.617 E.03631
G1 X144.486 Y153.8 E.03548
G1 X144.046 Y152.908 E.03588
G1 X143.724 Y151.956 E.03631
G1 X143.533 Y150.992 E.03548
G1 X143.468 Y150 E.03588
G1 X143.535 Y148.997 E.03631
G1 X143.726 Y148.033 E.03548
G1 X144.046 Y147.092 E.03588
G1 X144.492 Y146.191 E.03631
G1 X145.038 Y145.374 E.03548
G1 X145.693 Y144.627 E.03589
G1 X146.441 Y143.971 E.03589
G1 X147.267 Y143.419 E.03589
G1 X148.159 Y142.979 E.03589
G1 X149.1 Y142.66 E.03589
G1 X150.075 Y142.466 E.03588
G1 X151.078 Y142.402 E.03631
G1 X151.396 Y142.422 E.01152
G1 X152.059 Y142.466 E.02396
G1 X152.98 Y142.649 E.03393
G1 E-.42 F2400
;WIPE_START
G1 F3000
G1 X153.033 Y142.66 E-.00978
G1 X153.929 Y142.964 E-.17022
;WIPE_END
G1 X154.696 Y143.992 Z.6 F30000
G1 Z.2
G1 E.6 F2400
;TYPE:Bottom surface
;WIDTH:0.512881
G1 F4852
G1 X155.948 Y145.244 E.06572
G1 X156.484 Y145.857 E.03022
G1 X156.973 Y146.59 E.03272
G1 X157.309 Y147.269 E.02813
G1 X153.797 Y143.758 E.18435
G1 X153.677 Y143.699 E.00499
G1 X152.775 Y143.401 E.03525
G1 X157.666 Y148.292 E.25678
G1 X157.829 Y149.12 E.03133
G1 X151.947 Y143.237 E.30883
G1 X151.236 Y143.191 E.02646
G1 X153.251 Y145.206 E.10579
G1 X153.421 Y145.272 E.00677
G1 X154.25 Y145.785 E.03619
G1 X154.97 Y146.441 E.03619
G1 X155.558 Y147.219 E.03619
G1 X155.848 Y147.803 E.02421
G1 X157.876 Y149.831 E.10646
G3 X157.855 Y150.475 I-2.429 J.244 E.02398
G1 X156.199 Y148.818 E.08697
G1 X156.259 Y149.029 E.00815
G1 X156.311 Y149.595 E.0211
G1 X157.792 Y151.076 E.07773
G1 X157.682 Y151.63 E.02098
G1 X156.324 Y150.272 E.0713
G1 X156.267 Y150.88 E.02268
G1 X157.527 Y152.141 E.06616
G1 X157.356 Y152.634 E.01939
G1 X156.133 Y151.411 E.06419
G1 X155.983 Y151.926 E.0199
G1 X157.136 Y153.079 E.06052
G3 X156.905 Y153.512 I-1.781 J-.67 E.01829
G1 X155.762 Y152.37 E.06
G1 X155.537 Y152.808 E.01832
G1 X156.639 Y153.911 E.05787
G3 X156.355 Y154.292 I-1.589 J-.887 E.01768
G1 X155.251 Y153.187 E.05799
G1 X154.964 Y153.565 E.01761
G1 X156.045 Y154.646 E.05676
G3 X155.712 Y154.978 I-1.428 J-1.096 E.0175
G1 X154.616 Y153.882 E.05757
G1 X154.268 Y154.198 E.01747
G1 X155.358 Y155.289 E.05723
G3 X154.977 Y155.572 I-1.268 J-1.305 E.01768
G1 X153.861 Y154.456 E.05861
G1 X153.451 Y154.71 E.01792
G1 X154.579 Y155.838 E.05924
G3 X154.146 Y156.07 I-1.096 J-1.529 E.01828
G1 X152.976 Y154.901 E.06139
G1 X152.495 Y155.084 E.01913
G1 X153.701 Y156.289 E.06331
G1 X153.207 Y156.461 E.01939
G1 X151.935 Y155.188 E.0668
G3 X151.341 Y155.26 I-.487 J-1.552 E.02231
G1 X152.697 Y156.615 E.07116
G1 X152.143 Y156.725 E.02098
G1 X150.677 Y155.26 E.07695
G1 X150.579 Y155.26 E.00362
G1 X149.882 Y155.129 E.02634
G1 X151.735 Y156.983 E.09731
G1 E-.42 F2400
;WIPE_START
G1 F6300
G1 X151.028 Y156.276 E-.18
;WIPE_END
G1 X152.046 Y148.711 Z.6 F30000
G1 X152.526 Y145.146 Z.6
G1 Z.2
G1 E.6 F2400
G1 F4852
G1 X150.592 Y143.211 E.10154
G2 X149.991 Y143.275 I-.062 J2.29 E.02251
G1 X151.456 Y144.74 E.07695
G1 X150.792 Y144.74 E.02467
G1 X149.436 Y143.385 E.07116
G2 X148.926 Y143.539 I.331 J2.016 E.01985
G1 X150.198 Y144.812 E.0668
G1 X149.638 Y144.916 E.02115
G1 X148.433 Y143.711 E.0633
G1 X147.988 Y143.93 E.01842
G1 X149.157 Y145.099 E.06139
G1 X148.683 Y145.29 E.01897
G1 X147.554 Y144.162 E.05924
G1 X147.156 Y144.428 E.01779
G1 X148.272 Y145.544 E.05861
G1 X147.865 Y145.801 E.01788
G1 X146.775 Y144.711 E.05723
G1 X146.421 Y145.022 E.01748
G1 X147.518 Y146.119 E.0576
G1 X147.171 Y146.437 E.01746
G1 X146.089 Y145.354 E.05683
G1 X145.778 Y145.708 E.01748
G1 X146.883 Y146.813 E.05799
G1 X146.597 Y147.192 E.01762
G1 X145.494 Y146.089 E.05787
G1 X145.228 Y146.488 E.01779
G1 X146.371 Y147.631 E.06
G1 X146.15 Y148.074 E.0184
G1 X144.997 Y146.922 E.06052
G1 X144.777 Y147.366 E.01842
G1 X146 Y148.589 E.06419
G1 X145.875 Y149.029 E.01701
G1 X145.866 Y149.12 E.00336
G1 X144.606 Y147.859 E.06616
G2 X144.452 Y148.37 I1.861 J.841 E.01985
G1 X145.81 Y149.728 E.0713
G2 X145.822 Y150.405 I1.817 J.306 E.02528
G1 X144.342 Y148.924 E.07773
M73 P1 R14
G2 X144.278 Y149.525 I2.277 J.544 E.02251
G1 X146.234 Y151.481 E.10266
G1 E-.42 F2400
;WIPE_START
G1 F6300
G1 X145.527 Y150.774 E-.18
;WIPE_END
G1 X144.043 Y149.955 Z.6 F30000
G1 Z.2
G1 E.6 F2400
G1 F4852
G1 X146.285 Y152.197 E.11771
G1 X146.576 Y152.781 E.0242
G1 X147.163 Y153.559 E.03619
G1 X147.884 Y154.215 E.03619
G1 X148.712 Y154.728 E.03619
G1 X148.882 Y154.794 E.00677
G1 X150.897 Y156.809 E.1058
G1 X150.186 Y156.763 E.02646
G1 X144.304 Y150.881 E.30882
G1 X144.467 Y151.709 E.03133
G1 X149.358 Y156.599 E.25677
G1 X148.457 Y156.302 E.03522
G1 X148.335 Y156.241 E.00506
G1 X144.825 Y152.731 E.1843
G1 X145.16 Y153.41 E.02813
G1 X145.65 Y154.143 E.03272
G1 X146.186 Y154.757 E.03026
G1 X147.437 Y156.007 E.06566
G1 E-.42 F2400
;WIPE_START
G1 F6300
G1 X146.73 Y155.3 E-.18
;WIPE_END
G1 X149.683 Y155.003 Z.6 F30000
G1 Z.2
G1 E.6 F2400
;TYPE:Gap infill
;WIDTH:0.100474
G1 F3000
G1 X149.501 Y155.08 E.0009
G1 X147.764 Y156.035 F30000
;WIDTH:0.12072
G1 F3000
G1 X147.627 Y155.936 E.00104
;WIDTH:0.143669
G1 X147.562 Y155.883 E.00067
G1 E-.5324 F2400
;WIPE_START
G1 F3000
G1 X147.627 Y155.936 E-.0676
;WIPE_END
G1 X151.493 Y149.356 Z.6 F30000
G1 X154.571 Y144.117 Z.6
G1 Z.2
G1 E.6 F2400
;WIDTH:0.14566
G1 F3000
G1 X154.498 Y144.057 E.00077
;WIDTH:0.141606
G1 X154.366 Y143.962 E.00126
; stop printing object coupling_motor_lead_screw.stl id:0 copy 0
;TIME_ELAPSED:10.244856

M106 S255
;LAYER_CHANGE
;Z:0.4
;HEIGHT:0.2
;BEFORE_LAYER_CHANGE
;0.4
G92 E0

G1 E-.47042 F2400
;WIPE_START
G1 F3000
G1 X154.498 Y144.057 E-.12958
;WIPE_END
EXCLUDE_OBJECT_END NAME=coupling_motor_lead_screw.stl_id_0_copy_0
;AFTER_LAYER_CHANGE
;0.4
;_SET_FAN_SPEED_CHANGING_LAYER
SET_VELOCITY_LIMIT ACCEL=10000 ACCEL_TO_DECEL=10000
M140 S50 ; set bed temperature
; printing object coupling_motor_lead_screw.stl id:0 copy 0
EXCLUDE_OBJECT_START NAME=coupling_motor_lead_screw.stl_id_0_copy_0
G17
G3 Z.6 I-1.216 J.044 P1  F30000
G1 X154.816 Y152.809 Z.6
G1 Z.4
G1 E.6 F2400
SET_VELOCITY_LIMIT ACCEL=5000 ACCEL_TO_DECEL=5000
;TYPE:Inner wall
;WIDTH:0.45
G1 F4085
G1 X154.543 Y153.17 E.01454
G1 X153.902 Y153.754 E.02792
G1 X153.233 Y154.169 E.02531
G1 X153.164 Y154.211 E.0026
G1 X152.354 Y154.525 E.02792
G1 X151.501 Y154.685 E.02792
G1 X150.633 Y154.685 E.02792
G1 X149.779 Y154.525 E.02792
G1 X148.97 Y154.211 E.02792
G1 X148.232 Y153.754 E.02792
G1 X147.59 Y153.17 E.02792
G1 X147.067 Y152.477 E.02792
G1 X146.68 Y151.7 E.02792
G1 X146.442 Y150.864 E.02792
G1 X146.362 Y150 E.02792
G1 X146.442 Y149.136 E.02792
G1 X146.68 Y148.3 E.02792
G1 X147.067 Y147.523 E.02792
G1 X147.59 Y146.83 E.02792
G1 X148.232 Y146.246 E.02792
G1 X148.901 Y145.831 E.02531
G1 X148.97 Y145.789 E.0026
G1 X149.779 Y145.475 E.02792
G1 X150.633 Y145.315 E.02792
G1 X151.501 Y145.315 E.02792
G1 X152.354 Y145.475 E.02792
G1 X153.164 Y145.789 E.02792
G1 X153.902 Y146.246 E.02792
G1 X154.543 Y146.83 E.02792
G1 X155.067 Y147.523 E.02792
G1 X155.454 Y148.3 E.02792
G1 X155.691 Y149.136 E.02792
G1 X155.771 Y150 E.02792
G1 X155.691 Y150.864 E.02792
G1 X155.454 Y151.7 E.02792
G1 X155.067 Y152.477 E.02792
G1 X154.84 Y152.777 E.01209
SET_VELOCITY_LIMIT ACCEL=10000 ACCEL_TO_DECEL=10000
G1 X154.732 Y152.269 F30000
SET_VELOCITY_LIMIT ACCEL=5000 ACCEL_TO_DECEL=5000
;TYPE:Outer wall
;WIDTH:0.42
G1 F4085
G1 X154.252 Y152.904 E.0237
G1 X153.665 Y153.44 E.0237
G1 X153.026 Y153.835 E.02237
G1 X152.246 Y154.146 E.02501
G1 X151.464 Y154.293 E.0237
G1 X150.669 Y154.293 E.0237
G1 X149.887 Y154.146 E.0237
G1 X149.145 Y153.859 E.0237
G1 X148.469 Y153.44 E.0237
G1 X147.881 Y152.904 E.0237
G1 X147.401 Y152.269 E.0237
G1 X147.047 Y151.557 E.0237
G1 X146.829 Y150.792 E.0237
G1 X146.756 Y150 E.0237
G1 X146.829 Y149.208 E.0237
G1 X147.047 Y148.443 E.0237
G1 X147.401 Y147.731 E.0237
G1 X147.881 Y147.096 E.0237
G1 X148.469 Y146.56 E.0237
G1 X149.107 Y146.165 E.02237
G1 X149.887 Y145.854 E.02501
G1 X150.669 Y145.707 E.0237
G1 X151.464 Y145.707 E.0237
G1 X152.246 Y145.854 E.0237
G1 X152.988 Y146.141 E.0237
G1 X153.665 Y146.56 E.0237
G1 X154.252 Y147.096 E.0237
G1 X154.732 Y147.731 E.0237
G1 X155.086 Y148.443 E.0237
G1 X155.304 Y149.208 E.0237
G1 X155.378 Y150 E.0237
G1 X155.304 Y150.792 E.0237
G1 X155.086 Y151.557 E.0237
G1 X154.75 Y152.234 E.0225
SET_VELOCITY_LIMIT ACCEL=10000 ACCEL_TO_DECEL=10000
G1 E-.42 F2400
;WIPE_START
G1 F12000
G1 X154.252 Y152.904 E-.15028
G1 X154.13 Y153.015 E-.02972
;WIPE_END
G1 X153.581 Y145.403 Z.8 F30000
G1 X153.407 Y143 Z.8
G1 Z.4
G1 E.6 F2400
SET_VELOCITY_LIMIT ACCEL=5000 ACCEL_TO_DECEL=5000
;TYPE:Inner wall
;WIDTH:0.45
G1 F4085
G1 X153.897 Y143.166 E.01664
G1 X154.765 Y143.594 E.03111
G1 X155.569 Y144.132 E.03111
G1 X156.297 Y144.77 E.03111
G1 X156.935 Y145.497 E.03111
G1 X157.472 Y146.302 E.03111
G1 X157.9 Y147.169 E.03111
G1 X158.211 Y148.086 E.03111
G1 X158.4 Y149.035 E.03111
G1 X158.463 Y150 E.03111
G1 X158.4 Y150.965 E.03111
G1 X158.211 Y151.914 E.03111
G1 X157.9 Y152.831 E.03111
G1 X157.472 Y153.698 E.03111
G1 X156.935 Y154.503 E.03111
G1 X156.297 Y155.23 E.03111
G1 X155.569 Y155.868 E.03111
G1 X154.765 Y156.406 E.03111
G1 X153.897 Y156.834 E.03111
G1 X152.981 Y157.145 E.03111
G1 X152.032 Y157.333 E.03111
G1 X151.067 Y157.397 E.03111
G1 X150.101 Y157.333 E.03111
