; HEADER_BLOCK_START
; generated by Creality_Print V5.1.4.10249 on 2024-11-10 at 19:27:46
; total layer number: 150
; filament_density: 1.24
; filament_diameter: 1.75
; max_z_height: 30.00
; HEADER_BLOCK_END

; MINX = 105.00
; MINY = 115.00
; MINZ = 0.00
; MAXX = 195.00
; MAXY = 185.00
; MAXZ = 30.00

; THUMBNAIL_BLOCK_START

;
; THUMBNAIL_BLOCK_END

; THUMBNAIL_BLOCK_START

;
; THUMBNAIL_BLOCK_END

; external perimeters extrusion width = 0.42mm
; perimeters extrusion width = 0.45mm
; infill extrusion width = 0.45mm
; solid infill extrusion width = 0.42mm
; top infill extrusion width = 0.42mm
; support material extrusion width = 0.42mm
; first layer extrusion width = 0.50mm

; EXECUTABLE_BLOCK_START
EXCLUDE_OBJECT_DEFINE NAME=L0wer_battery.stl_id_0_copy_0 CENTER=150,150 POLYGON=[[105,126.113],[125,115],[175,115],[195,126.113],[195,133.887],[158.5,185],[141.5,185],[105,133.887],[105,126.113]]
M73 P0 R43
M106 S0
M106 P2 S0
;TYPE:Custom
M140 S0
M104 S0 
START_PRINT EXTRUDER_TEMP=220 BED_TEMP=50
M141 S35;set chamber_temperature
G90
G21
M83 ; use relative distances for extrusion
; filament start gcode
M106 S0
;LAYER_CHANGE
;Z:0.2
;HEIGHT:0.2
;BEFORE_LAYER_CHANGE
;0.2
G92 E0

G1 E-.6 F2400
;AFTER_LAYER_CHANGE
;0.2
;_SET_FAN_SPEED_CHANGING_LAYER
SET_VELOCITY_LIMIT ACCEL=1000 ACCEL_TO_DECEL=1000
SET_VELOCITY_LIMIT SQUARE_CORNER_VELOCITY=20
; printing object L0wer_battery.stl id:0 copy 0
EXCLUDE_OBJECT_START NAME=L0wer_battery.stl_id_0_copy_0
G1 X106.649 Y124.385 F30000
G1 Z.4
G1 Z.2
G1 E.6 F2400
;TYPE:Support
;WIDTH:0.5
G1 F3000
G3 X109.887 Y125.749 I-.332 J5.315 E.12926
G3 X116.564 Y126.985 I2.524 J5.016 E.26331
G3 X124.4 Y126.139 I4.304 J3.148 E.32024
G1 X124.4 Y134.075 E.28655
G3 X116.771 Y133.466 I-3.504 J-4.195 E.3061
G3 X108.904 Y134.342 I-4.348 J-3.287 E.31986
G3 X106.581 Y124.382 I-2.567 J-4.652 E.7082
G1 X123.591 Y134.423 F30000
G1 F3000
G1 X123.591 Y126.038 E.30276
G2 X123.083 Y125.731 I-1.1 J1.246 E.02154
G1 X123.083 Y134.484 E.31603
G1 X122.575 Y134.701 E.01994
G1 X122.575 Y125.514 E.3317
G2 X122.067 Y125.362 I-.672 J1.323 E.01924
G1 X122.067 Y134.852 E.34266
G1 X121.56 Y134.968 E.01881
G1 X121.56 Y125.246 E.35104
G2 X121.052 Y125.219 I-.898 J12.106 E.01836
G1 X121.052 Y134.995 E.35298
G3 X120.544 Y134.998 I-.26 J-1.398 E.01844
G1 X120.544 Y125.217 E.35316
G1 X120.036 Y125.285 E.0185
G1 X120.036 Y134.929 E.34819
G3 X119.528 Y134.811 I.07 J-1.458 E.01892
G1 X119.528 Y125.403 E.33971
G1 X119.02 Y125.568 E.01928
G1 X119.02 Y134.646 E.32779
G3 X118.512 Y134.389 I.456 J-1.528 E.02067
G1 X118.512 Y125.826 E.30918
G2 X118.004 Y126.142 I.619 J1.558 E.02173
G1 X118.004 Y134.072 E.2863
G1 X117.497 Y133.667 E.02345
G1 X117.497 Y126.547 E.25706
G2 X116.989 Y127.124 I1.335 J1.688 E.0279
G1 X116.989 Y133.09 E.2154
G1 X116.741 Y132.807 E.01357
G1 X116.481 Y133.166 E.01601
G1 X116.481 Y127.475 E.20547
G1 X115.973 Y126.989 E.02537
G1 X115.973 Y133.79 E.24556
G3 X115.465 Y134.261 I-1.552 J-1.164 E.02515
G1 X115.465 Y126.518 E.27958
G1 X114.957 Y126.183 E.02197
G1 X114.957 Y134.597 E.30379
G3 X114.449 Y134.855 I-.966 J-1.27 E.02069
G1 X114.449 Y125.924 E.32245
G2 X113.942 Y125.713 I-.837 J1.294 E.01997
G1 X113.942 Y135.067 E.33773
G1 X113.434 Y135.183 E.01881
G1 X113.434 Y125.597 E.3461
G2 X112.926 Y125.515 I-.48 J1.358 E.01867
G1 X112.926 Y135.264 E.35201
G1 X112.418 Y135.287 E.01836
G1 X112.418 Y125.492 E.35366
G2 X111.91 Y125.527 I-.157 J1.417 E.01848
G1 X111.91 Y135.252 E.35112
G1 X111.402 Y135.183 E.0185
G1 X111.402 Y125.596 E.34615
G2 X110.894 Y125.753 I.178 J1.478 E.0193
G1 X110.894 Y135.026 E.33482
G3 X110.386 Y134.832 I.28 J-1.496 E.01973
G1 X110.386 Y125.947 E.32082
G1 X109.879 Y126.22 E.02082
G1 X109.879 Y134.559 E.30109
G3 X109.371 Y134.188 I.768 J-1.585 E.02283
G1 X109.371 Y125.829 E.30182
G1 X108.863 Y125.494 E.02197
G1 X108.863 Y133.913 E.30397
G1 X108.355 Y134.13 E.01994
G1 X108.355 Y125.228 E.32142
G1 X107.847 Y125.01 E.01994
G1 X107.847 Y134.347 E.33709
G3 X107.339 Y134.464 I-.576 J-1.341 E.01892
G1 X107.339 Y124.893 E.34554
G2 X106.831 Y124.805 I-.497 J1.355 E.01871
G1 X106.831 Y134.552 E.3519
G1 X106.324 Y134.575 E.01836
G1 X106.324 Y124.783 E.35355
G2 X105.816 Y124.812 I-.174 J1.414 E.01847
G1 X105.816 Y134.545 E.35145
G1 X105.308 Y134.477 E.0185
G1 X105.308 Y124.88 E.34648
G2 X104.8 Y125.031 I.161 J1.475 E.01923
G1 X104.8 Y134.326 E.33561
G3 X104.292 Y134.139 I.261 J-1.493 E.01964
G1 X104.292 Y125.218 E.32212
G1 X103.784 Y125.491 E.02082
G1 X103.784 Y133.866 E.30239
G3 X103.276 Y133.504 I.744 J-1.58 E.02264
G1 X103.276 Y125.853 E.27624
G2 X102.768 Y126.314 I1.017 J1.63 E.0249
G1 X102.768 Y133.043 E.24294
G3 X102.261 Y132.414 I1.48 J-1.714 E.02935
G1 X102.261 Y126.944 E.1975
G2 X101.753 Y127.939 I2.489 J1.897 E.04057
G1 X101.753 Y131.965 E.14535
G1 E-.42 F2400
;WIPE_START
G1 F3000
G1 X101.753 Y130.965 E-.18
;WIPE_END
G1 X107.625 Y135.84 Z.6 F30000
G1 X137.715 Y160.821 Z.6
G1 Z.2
G1 E.6 F2400
G1 F3000
G3 X140.9 Y162.134 I-.338 J5.34 E.12664
G1 X140.9 Y170.094 E.28741
G3 X137.647 Y160.818 I-3.463 J-3.994 E.74357
G1 X140.351 Y170.267 F30000
G1 F3000
G1 X140.351 Y162.208 E.29098
G1 X139.843 Y161.873 E.02197
G1 X139.843 Y170.356 E.30629
G3 X139.335 Y170.602 I-.933 J-1.276 E.02049
G1 X139.335 Y161.626 E.32408
G2 X138.827 Y161.425 I-.808 J1.299 E.01983
G1 X138.827 Y170.803 E.33859
G1 X138.319 Y170.919 E.01881
G1 X138.319 Y161.31 E.34696
G2 X137.811 Y161.237 I-.453 J1.363 E.01862
G1 X137.811 Y170.991 E.35218
G1 X137.303 Y171.014 E.01836
G1 X137.303 Y161.214 E.35383
G2 X136.795 Y161.259 I-.131 J1.422 E.01851
G1 X136.795 Y170.97 E.3506
G3 X136.288 Y170.899 I-.059 J-1.434 E.01861
G1 X136.288 Y161.33 E.3455
G1 X135.78 Y161.495 E.01928
G1 X135.78 Y170.734 E.33359
G3 X135.272 Y170.529 I.311 J-1.502 E.01988
G1 X135.272 Y161.7 E.31878
G1 X134.764 Y161.973 E.02082
G1 X134.764 Y170.255 E.29904
G3 X134.256 Y169.871 I.805 J-1.591 E.02312
G1 X134.256 Y162.358 E.27128
G2 X133.748 Y162.849 I1.099 J1.645 E.02565
G1 X133.748 Y169.38 E.23582
G3 X133.24 Y168.705 I1.605 J-1.737 E.03066
G1 X133.24 Y163.523 E.18709
G2 X132.733 Y164.604 I2.724 J1.94 E.04335
G1 X132.733 Y168.21 E.13018
G1 E-.42 F2400
;WIPE_START
G1 F3000
G1 X132.733 Y167.21 E-.18
;WIPE_END
G1 X139.954 Y169.681 Z.6 F30000
G1 X151.033 Y173.473 Z.6
G1 Z.2
G1 E.6 F2400
G1 F3000
G3 X149.653 Y173.37 I-1.033 J4.527 E1.0032
G1 X150.965 Y173.468 E.0475
G1 X154.063 Y179.707 F30000
G1 F3000
G1 X154.063 Y176.99 E.0981
G2 X153.555 Y175.794 I-2.193 J.225 E.04764
G1 X153.555 Y180.206 E.1593
G3 X153.047 Y180.916 I-1.405 J-.468 E.03201
G1 X153.047 Y175.084 E.2106
G1 X152.539 Y174.679 E.02345
G1 X152.539 Y181.321 E.23984
G3 X152.031 Y181.693 I-.857 J-.637 E.02307
G1 X152.031 Y174.307 E.26669
G1 X151.524 Y174.108 E.0197
G1 X151.524 Y181.892 E.28108
G1 X151.016 Y182.092 E.0197
G1 X151.016 Y173.908 E.29547
G2 X150.508 Y173.846 I-.354 J.792 E.01875
G1 X150.508 Y182.154 E.29994
G1 X150 Y182.192 E.01839
G1 X150 Y173.808 E.30269
G2 X149.492 Y173.828 I-.221 J.833 E.01863
G1 X149.492 Y182.172 E.30124
G1 X148.984 Y182.056 E.01881
G1 X148.984 Y173.944 E.29287
G1 X148.476 Y174.06 E.01881
G1 X148.476 Y181.94 E.2845
G3 X147.969 Y181.654 I.21 J-.966 E.02136
G1 X147.969 Y174.346 E.26385
G1 X147.461 Y174.639 E.02117
G1 X147.461 Y181.361 E.24267
G3 X146.953 Y180.861 I.555 J-1.073 E.0261
G1 X146.953 Y175.139 E.20663
G2 X146.445 Y175.748 I.734 J1.128 E.02908
G1 X146.445 Y180.252 E.1626
G3 X145.937 Y179.09 I1.629 J-1.404 E.04647
G1 X145.937 Y176.329 E.09969
G1 E-.42 F2400
;WIPE_START
G1 F3000
G1 X145.937 Y177.329 E-.18
;WIPE_END
G1 X149.416 Y184.123 Z.6 F30000
G1 X150.177 Y185.609 Z.6
G1 Z.2
G1 E.6 F2400
G1 F3000
G3 X142.193 Y185.6 I-3.996 J3.457 E.87191
G1 X150.112 Y185.6 E.28591
G1 X151.016 Y190.699 F30000
G1 F3000
G2 X150.508 Y186.853 I-6.392 J-1.113 E.14227
G1 X150.508 Y191.37 E.16309
G3 X150 Y192.156 I-2.423 J-1.006 E.034
G1 X150 Y186.066 E.21991
G1 X149.492 Y186.011 E.01844
G1 X149.492 Y192.699 E.24145
G3 X148.984 Y193.112 I-1.393 J-1.193 E.02377
G1 X148.984 Y186.011 E.25637
G1 X148.476 Y186.011 E.01834
G1 X148.476 Y193.443 E.26832
G1 X147.969 Y193.66 E.01994
G1 X147.969 Y186.011 E.27617
G1 X147.461 Y186.011 E.01834
G1 X147.461 Y193.833 E.28239
G1 X146.953 Y193.949 E.01881
G1 X146.953 Y186.011 E.28658
G1 X146.445 Y186.011 E.01834
G1 X146.445 Y193.995 E.28824
G3 X145.937 Y194.016 I-.312 J-1.389 E.01845
G1 X145.937 Y186.011 E.289
G1 X145.429 Y186.011 E.01834
G1 X145.429 Y193.947 E.28652
G3 X144.921 Y193.849 I.016 J-1.448 E.01877
G1 X144.921 Y186.011 E.28299
G1 X144.413 Y186.011 E.01834
G1 X144.413 Y193.684 E.27704
G3 X143.906 Y193.449 I.395 J-1.517 E.02032
G1 X143.906 Y186.011 E.26853
G1 X143.398 Y186.011 E.01834
G1 X143.398 Y193.159 E.25806
G1 X142.89 Y192.754 E.02345
G1 X142.89 Y186.011 E.24344
G1 X142.382 Y186.011 E.01834
G1 X142.382 Y192.213 E.22392
G3 X141.874 Y191.463 I1.813 J-1.774 E.03289
G1 X141.874 Y186.76 E.16981
G2 X141.366 Y188.172 I4.468 J2.404 E.05439
G1 X141.366 Y190.825 E.09581
G1 E-.42 F2400
;WIPE_START
G1 F3000
G1 X141.366 Y189.825 E-.18
;WIPE_END
G1 X143.754 Y182.576 Z.6 F30000
G1 X151.033 Y160.473 Z.6
G1 Z.2
G1 E.6 F2400
G1 F3000
G3 X149.653 Y160.37 I-1.033 J4.527 E1.0032
G1 X150.965 Y160.468 E.0475
G1 X154.063 Y166.707 F30000
M73 P1 R43
G1 F3000
G1 X154.063 Y163.99 E.0981
G2 X153.555 Y162.794 I-2.193 J.225 E.04764
G1 X153.555 Y167.206 E.1593
G3 X153.047 Y167.916 I-1.405 J-.468 E.03201
G1 X153.047 Y162.084 E.2106
G1 X152.539 Y161.679 E.02345
G1 X152.539 Y168.321 E.23984
G3 X152.031 Y168.693 I-.857 J-.637 E.02307
G1 X152.031 Y161.307 E.26669
G1 X151.524 Y161.108 E.0197
G1 X151.524 Y168.892 E.28108
G1 X151.016 Y169.092 E.0197
G1 X151.016 Y160.908 E.29547
G2 X150.508 Y160.846 I-.354 J.792 E.01875
G1 X150.508 Y169.154 E.29994
G1 X150 Y169.192 E.01839
G1 X150 Y160.808 E.30269
G2 X149.492 Y160.828 I-.221 J.833 E.01863
G1 X149.492 Y169.172 E.30124
G1 X148.984 Y169.056 E.01881
G1 X148.984 Y160.944 E.29287
G1 X148.476 Y161.06 E.01881
G1 X148.476 Y168.94 E.2845
G3 X147.969 Y168.654 I.21 J-.966 E.02136
G1 X147.969 Y161.346 E.26385
G1 X147.461 Y161.639 E.02117
G1 X147.461 Y168.361 E.24267
G3 X146.953 Y167.861 I.555 J-1.073 E.0261
G1 X146.953 Y162.139 E.20663
G2 X146.445 Y162.748 I.734 J1.128 E.02908
G1 X146.445 Y167.252 E.1626
G3 X145.937 Y166.09 I1.629 J-1.404 E.04647
G1 X145.937 Y163.329 E.09969
G1 E-.42 F2400
;WIPE_START
G1 F3000
G1 X145.937 Y164.329 E-.18
;WIPE_END
G1 X153.557 Y163.888 Z.6 F30000
G1 X162.751 Y163.356 Z.6
G1 Z.2
G1 E.6 F2400
G1 F3000
G3 X165.182 Y173.308 I-.156 J5.311 E.49946
G3 X159.1 Y181.946 I-2.578 J4.645 E.64363
G1 X159.1 Y173.98 E.28762
G1 X159.989 Y173.271 E.04105
G3 X159.1 Y172.645 I1.281 J-2.762 E.03947
G1 X159.1 Y164.669 E.28799
G3 X162.683 Y163.353 I3.519 J4.045 E.1409
G1 X167.267 Y180.039 F30000
G1 F3000
G1 X167.267 Y176.454 E.12943
G2 X166.76 Y175.353 I-5.909 J2.059 E.04384
G1 X166.76 Y180.573 E.18846
G3 X166.252 Y181.248 I-2.114 J-1.062 E.03067
G1 X166.252 Y174.678 E.23722
G1 X165.744 Y174.193 E.02537
G1 X165.744 Y181.734 E.27228
G3 X165.236 Y182.09 I-1.236 J-1.221 E.02253
G1 X165.236 Y173.59 E.30693
G1 X167.267 Y170.719 F30000
G1 F3000
G1 X167.267 Y167.173 E.12803
G2 X166.76 Y166.056 I-5.919 J2.019 E.04435
G1 X166.76 Y171.258 E.1878
G3 X166.252 Y171.936 I-2.121 J-1.06 E.03076
G1 X166.252 Y165.378 E.23677
G1 X165.744 Y164.893 E.02536
G1 X165.744 Y172.421 E.2718
G3 X165.236 Y172.78 I-1.242 J-1.219 E.02257
G1 X165.236 Y164.534 E.2977
G2 X164.728 Y164.246 I-1.048 J1.255 E.0212
G1 X164.728 Y182.377 E.65464
G1 X164.22 Y182.594 E.01994
G1 X164.22 Y164.029 E.6703
G2 X163.712 Y163.893 I-.628 J1.331 E.01909
G1 X163.712 Y182.728 E.68006
G3 X163.205 Y182.832 I-.541 J-1.347 E.01882
G1 X163.205 Y163.788 E.68763
G1 X162.697 Y163.765 E.01835
G1 X162.697 Y182.855 E.68926
G3 X162.189 Y182.842 I-.217 J-1.406 E.01844
G1 X162.189 Y163.777 E.68835
G1 X161.681 Y163.846 E.01851
G1 X161.681 Y182.773 E.68337
G3 X161.173 Y182.639 I.115 J-1.466 E.01907
G1 X161.173 Y163.979 E.67374
G2 X160.665 Y164.145 I.205 J1.483 E.0194
G1 X160.665 Y182.471 E.66166
G1 X160.157 Y182.198 E.02082
G1 X160.157 Y173.663 E.30814
G1 X159.649 Y174.068 E.02345
G1 X159.649 Y182.121 E.29076
G1 X160.157 Y173.129 F30000
G1 F3000
G1 X160.157 Y164.419 E.31447
G2 X159.649 Y164.757 I.676 J1.569 E.02214
G1 X159.649 Y172.821 E.29116
G1 E-.42 F2400
;WIPE_START
G1 F3000
G1 X159.649 Y171.821 E-.18
;WIPE_END
G1 X163.889 Y165.474 Z.6 F30000
G1 X191.052 Y124.802 Z.6
G1 Z.2
G1 E.6 F2400
G1 F3000
G3 X185.755 Y132.115 I-.397 J5.287 E.81273
G3 X175.6 Y131.643 I-5.003 J-1.846 E.48662
G1 X175.6 Y128.953 E.09711
G3 X185.706 Y128.379 I5.151 J1.431 E.47985
G3 X190.984 Y124.799 I5.211 J2.002 E.24507
G1 X195.2 Y132.551 F30000
M73 P1 R42
G1 F3000
G1 X195.2 Y128.114 E.1602
G2 X194.692 Y127.234 I-2.68 J.96 E.03689
G1 X194.692 Y132.957 E.20664
G3 X194.184 Y133.555 I-1.903 J-1.101 E.02849
G1 X194.184 Y126.636 E.24985
G2 X193.676 Y126.183 I-1.501 J1.173 E.0247
G1 X193.676 Y134.008 E.28254
G1 X193.169 Y134.344 E.02198
G1 X193.169 Y125.847 E.30676
G2 X192.661 Y125.603 I-.926 J1.278 E.02045
G1 X192.661 Y134.587 E.32438
G3 X192.153 Y134.786 I-.802 J-1.3 E.0198
G1 X192.153 Y125.405 E.33874
G1 X191.645 Y125.288 E.01881
G1 X191.645 Y134.903 E.34713
G3 X191.137 Y134.973 I-.448 J-1.364 E.01861
G1 X191.137 Y125.218 E.35221
G1 X190.629 Y125.195 E.01836
G1 X190.629 Y134.996 E.35387
G3 X190.121 Y134.949 I-.126 J-1.423 E.01851
G1 X190.121 Y125.242 E.35051
G2 X189.614 Y125.314 I-.054 J1.435 E.01862
G1 X189.614 Y134.877 E.34527
G1 X189.106 Y134.712 E.01928
G1 X189.106 Y125.479 E.33336
G2 X188.598 Y125.686 I.317 J1.503 E.01991
G1 X188.598 Y134.505 E.3184
G1 X188.09 Y134.232 E.02082
G1 X188.09 Y125.959 E.29868
G2 X187.582 Y126.346 I.812 J1.592 E.02318
G1 X187.582 Y133.845 E.27073
G3 X187.074 Y133.35 I1.108 J-1.646 E.02573
G1 X187.074 Y126.841 E.23502
G2 X186.566 Y127.521 I1.619 J1.739 E.03081
G1 X186.566 Y132.67 E.18592
G1 X186.058 Y131.821 E.03574
G1 X186.058 Y128.611 E.11588
G1 X185.753 Y129.425 E.03139
G1 X185.551 Y129.005 E.01684
G1 X185.551 Y131.591 E.0934
G1 X185.043 Y132.646 E.04227
G1 X185.043 Y127.95 E.16958
G2 X184.535 Y127.193 I-2.339 J1.021 E.03308
G1 X184.535 Y133.403 E.22421
G3 X184.027 Y133.927 I-1.698 J-1.138 E.02649
G1 X184.027 Y126.669 E.26205
G2 X183.519 Y126.269 I-1.357 J1.199 E.02347
G1 X183.519 Y134.327 E.29096
G3 X183.011 Y134.648 I-1.139 J-1.239 E.02181
G1 X183.011 Y125.948 E.31414
G1 X182.503 Y125.73 E.01994
G1 X182.503 Y134.866 E.32983
G3 X181.996 Y135.029 I-.705 J-1.318 E.01937
G1 X181.996 Y125.567 E.34166
G1 X181.488 Y125.451 E.01881
G1 X181.488 Y135.145 E.35004
G3 X180.98 Y135.183 I-.359 J-1.38 E.01849
G1 X180.98 Y125.413 E.35279
G2 X180.472 Y125.399 I-.29 J1.392 E.01844
G1 X180.472 Y135.197 E.35374
G1 X179.964 Y135.128 E.0185
G1 X179.964 Y125.468 E.34878
G2 X179.456 Y125.574 I.038 J1.452 E.01883
G1 X179.456 Y135.022 E.34113
G1 X178.948 Y134.857 E.01928
G1 X178.948 Y125.739 E.32922
G2 X178.44 Y125.984 I.421 J1.522 E.02047
G1 X178.44 Y134.612 E.31154
G3 X177.933 Y134.311 I.576 J-1.55 E.02143
G1 X177.933 Y126.285 E.28979
G1 X177.425 Y126.69 E.02345
G1 X177.425 Y133.906 E.26056
G3 X176.917 Y133.35 I1.277 J-1.677 E.02733
G1 X176.917 Y127.246 E.22042
G2 X176.409 Y128.019 I1.876 J1.786 E.03359
G1 X176.409 Y132.978 E.17905
G1 E-.42 F2400
;WIPE_START
G1 F3000
G1 X176.409 Y131.978 E-.18
;WIPE_END
G1 X171.96 Y138.18 Z.6 F30000
G1 X144.606 Y176.314 Z.6
G1 Z.2
G1 E.6 F2400
;TYPE:Outer wall
G1 F3000
G1 X145.328 Y174.815 E.06008
G1 X146.474 Y173.579 E.06086
G1 X147.934 Y172.736 E.06086
G1 X149.15 Y172.459 E.04503
G1 X149.577 Y172.361 E.01583
G1 X151.258 Y172.487 E.06086
G1 X152.827 Y173.103 E.06086
G1 X154.145 Y174.154 E.06086
G1 X155.095 Y175.547 E.06086
G1 X155.591 Y177.157 E.06086
G1 X155.591 Y178.843 E.06086
G1 X155.095 Y180.453 E.06086
G1 X154.145 Y181.846 E.06086
G1 X152.827 Y182.897 E.06086
G1 X151.258 Y183.513 E.06086
G1 X149.577 Y183.639 E.06086
G1 X147.934 Y183.264 E.06086
G1 X146.474 Y182.421 E.06086
G1 X145.328 Y181.185 E.06086
G1 X144.597 Y179.667 E.06086
G1 X144.345 Y178 E.06086
G1 X144.594 Y176.352 E.06019
G1 E-.42 F2400
;WIPE_START
G1 F3000
G1 X145.025 Y175.449 E-.18
;WIPE_END
G1 X149.915 Y169.589 Z.6 F30000
