; HEADER_BLOCK_START
; generated by Creality_Print V5.1.4.10249 on 2024-11-10 at 19:27:00
; total layer number: 250
; filament_density: 1.24
; filament_diameter: 1.75
; max_z_height: 50.00
; HEADER_BLOCK_END

; MINX = 98.50
; MINY = 123.00
; MINZ = 0.00
; MAXX = 201.50
; MAXY = 177.00
; MAXZ = 50.00

; THUMBNAIL_BLOCK_START

;
; THUMBNAIL_BLOCK_END

; THUMBNAIL_BLOCK_START

;
; THUMBNAIL_BLOCK_END

; external perimeters extrusion width = 0.42mm
; perimeters extrusion width = 0.45mm
; infill extrusion width = 0.45mm
; solid infill extrusion width = 0.42mm
; top infill extrusion width = 0.42mm
; support material extrusion width = 0.42mm
; first layer extrusion width = 0.50mm

; EXECUTABLE_BLOCK_START
EXCLUDE_OBJECT_DEFINE NAME=Upper_battery.stl_id_0_copy_0 CENTER=150,150 POLYGON=[[98.5,142.5],[138.5,123],[201.5,123],[201.5,177],[138.5,177],[98.5,157.5],[98.5,142.5]]
M73 P0 R60
M106 S0
M106 P2 S0
;TYPE:Custom
M140 S0
M104 S0 
START_PRINT EXTRUDER_TEMP=220 BED_TEMP=50
M141 S35;set chamber_temperature
G90
G21
M83 ; use relative distances for extrusion
; filament start gcode
M106 S0
;LAYER_CHANGE
;Z:0.2
;HEIGHT:0.2
;BEFORE_LAYER_CHANGE
;0.2
G92 E0

G1 E-.6 F2400
;AFTER_LAYER_CHANGE
;0.2
;_SET_FAN_SPEED_CHANGING_LAYER
SET_VELOCITY_LIMIT ACCEL=1000 ACCEL_TO_DECEL=1000
SET_VELOCITY_LIMIT SQUARE_CORNER_VELOCITY=20
; printing object Upper_battery.stl id:0 copy 0
EXCLUDE_OBJECT_START NAME=Upper_battery.stl_id_0_copy_0
G1 X130.206 Y132.551 F30000
G1 Z.4
G1 Z.2
G1 E.6 F2400
;TYPE:Support
;WIDTH:0.5
G1 F3000
G3 X134.859 Y140.099 I-.276 J5.378 E.37607
G3 X137.9 Y142.072 I-1.196 J5.173 E.13359
G1 X137.9 Y148.458 E.23055
G3 X129.765 Y148.936 I-4.273 J-3.255 E.33402
G3 X124.753 Y151.55 I-4.932 J-3.347 E.21262
G3 X125.336 Y153.686 I-4.822 J2.465 E.08052
G3 X130.242 Y153.854 I2.278 J5.183 E.18331
G3 X137.9 Y153.474 I4.009 J3.445 E.30973
G1 X137.9 Y161.171 E.2779
G3 X131.7 Y161.971 I-3.693 J-4.2 E.2395
G3 X122.306 Y158.78 I-4.021 J-3.584 E.45525
G3 X115.097 Y155.905 I-2.267 J-4.792 E.31438
G3 X107.3 Y156.274 I-4.085 J-3.751 E.31265
G3 X101.287 Y149.113 I-4.917 J-1.975 E.78873
G3 X108.421 Y147.401 I2.673 J-4.582 E.91088
G1 X108.683 Y147.701 E.0144
G3 X111.864 Y147.192 I2.463 J5.2 E.11789
G3 X121.338 Y142.504 I4.515 J-2.793 E.63839
G3 X125.723 Y140.939 I3.892 J3.979 E.17342
G3 X130.138 Y132.548 I4.344 J-3.072 E.42251
G1 E-.42 F2400
;WIPE_START
G1 F3000
G1 X129.142 Y132.638 E-.18
;WIPE_END
G1 X122.945 Y137.094 Z.6 F30000
G1 X105.631 Y149.547 Z.6
G1 Z.2
G1 E.6 F2400
G1 F3000
G1 X106.378 Y149.228 E.02934
G1 X106.617 Y149.501 E.01312
G2 X106.071 Y150.573 I2.679 J2.043 E.04367
G2 X104.939 Y149.705 I-2.957 J2.684 E.05177
G1 X105.564 Y149.562 E.02316
G1 E-.42 F2400
;WIPE_START
G1 F3000
G1 X104.939 Y149.705 E-.11546
G1 X105.223 Y149.923 E-.06454
;WIPE_END
G1 X112.843 Y150.37 Z.6 F30000
G1 X115.992 Y150.555 Z.6
G1 Z.2
G1 E.6 F2400
G1 F3000
G1 X115.523 Y149.581 E.03903
G2 X116.419 Y149.645 I.623 J-2.437 E.0326
G1 X116.547 Y149.985 E.01312
G2 X116.037 Y150.503 I1.174 J1.663 E.02638
G1 X137.303 Y161.416 F30000
G1 F3000
G1 X137.303 Y153.476 E.28667
G1 X136.795 Y153.141 E.02197
G1 X136.795 Y161.505 E.30198
G3 X136.288 Y161.772 I-.991 J-1.266 E.02083
G1 X136.288 Y152.874 E.32128
G1 X135.78 Y152.657 E.01994
G1 X135.78 Y161.989 E.33696
G3 X135.272 Y162.107 I-.579 J-1.34 E.01893
G1 X135.272 Y152.539 E.34547
G2 X134.764 Y152.45 I-.499 J1.355 E.01872
G1 X134.764 Y162.196 E.35189
G1 X134.256 Y162.219 E.01836
G1 X134.256 Y152.427 E.35354
G2 X133.748 Y152.455 I-.176 J1.413 E.01846
G1 X133.748 Y162.19 E.35149
G1 X133.24 Y162.121 E.0185
G1 X133.24 Y152.524 E.34652
G2 X132.733 Y152.674 I.158 J1.474 E.01922
G1 X132.733 Y161.972 E.33571
G3 X132.225 Y161.786 I.258 J-1.492 E.01963
G1 X132.225 Y152.86 E.3223
G1 X131.717 Y153.133 E.02082
G1 X131.717 Y161.513 E.30256
G1 X131.209 Y161.871 E.02245
G1 X131.209 Y153.494 E.30248
G2 X130.701 Y153.953 I1.013 J1.629 E.02487
G1 X130.701 Y162.355 E.30334
G1 X130.193 Y162.69 E.02197
G1 X130.193 Y154.28 E.30365
G1 X129.685 Y154.063 E.01994
G1 X129.685 Y162.958 E.32117
G1 X129.177 Y163.175 E.01994
G1 X129.177 Y153.846 E.33684
G2 X128.67 Y153.727 I-.581 J1.34 E.01893
G1 X128.67 Y163.294 E.34541
G3 X128.162 Y163.384 I-.501 J-1.354 E.01872
G1 X128.162 Y153.638 E.35188
G1 X127.654 Y153.615 E.01836
G1 X127.654 Y163.406 E.35353
G3 X127.146 Y163.379 I-.178 J-1.413 E.01846
G1 X127.146 Y153.643 E.35153
G1 X126.638 Y153.712 E.0185
G1 X126.638 Y163.31 E.34656
G3 X126.13 Y163.161 I.157 J-1.474 E.01921
G1 X126.13 Y153.861 E.3358
G1 X125.622 Y154.026 E.01928
G1 X125.622 Y162.976 E.32316
G1 X125.115 Y162.703 E.02082
G1 X125.115 Y154.191 E.30734
G1 X124.973 Y154.237 E.00538
G2 X124.607 Y152.194 I-6.767 J.159 E.07523
G1 X124.607 Y162.343 E.36643
G3 X124.099 Y161.884 I1.009 J-1.628 E.02483
G1 X124.099 Y141.433 E.7384
G1 X124.607 Y141.365 E.0185
G1 X124.607 Y151.145 E.35311
G1 X125.115 Y151.122 E.01836
G1 X125.115 Y141.324 E.35376
G1 X125.622 Y141.347 E.01836
G1 X125.622 Y151.099 E.35211
G2 X126.13 Y151.023 I.044 J-1.437 E.01864
G1 X126.13 Y134.911 E.58173
G1 X126.638 Y134.33 E.02787
G1 X126.638 Y150.907 E.59853
G2 X127.146 Y150.702 I-.312 J-1.502 E.01988
G1 X127.146 Y133.917 E.60604
G3 X127.654 Y133.59 I1.153 J1.236 E.02191
G1 X127.654 Y150.45 E.60874
G1 X128.162 Y150.115 E.02197
G1 X128.162 Y133.325 E.60622
G1 X128.67 Y133.16 E.01928
G1 X128.67 Y149.653 E.59551
G2 X129.177 Y149.043 I-1.442 J-1.717 E.0288
G1 X129.177 Y133.036 E.57798
G1 X129.685 Y132.967 E.0185
G1 X129.685 Y148.347 E.55532
G1 X130.193 Y148.752 E.02345
G1 X130.193 Y132.963 E.57009
G1 X130.701 Y132.985 E.01836
G1 X130.701 Y149.157 E.58389
G2 X131.209 Y149.498 I1.192 J-1.229 E.0222
G1 X131.209 Y133.099 E.59209
G3 X131.717 Y133.244 I-.144 J1.472 E.01917
G1 X131.717 Y149.771 E.59673
G2 X132.225 Y149.94 I.72 J-1.315 E.01943
G1 X132.225 Y133.461 E.595
G3 X132.733 Y133.759 I-.569 J1.549 E.02139
G1 X132.733 Y150.075 E.58908
G1 X133.24 Y150.143 E.0185
G1 X133.24 Y134.131 E.57814
G1 X133.748 Y134.616 E.02537
G1 X133.748 Y150.157 E.56112
G1 X134.256 Y150.135 E.01836
G1 X134.256 Y135.313 E.53514
G3 X134.764 Y136.529 I-5.992 J3.216 E.04766
G1 X134.764 Y139.176 E.09554
G3 X134.264 Y140.385 I-3.582 J-.772 E.0475
G1 X134.764 Y140.499 E.01851
G1 X134.764 Y150.031 E.34417
G2 X135.272 Y149.898 I-.114 J-1.466 E.01906
G1 X135.272 Y140.633 E.33452
G1 X135.78 Y140.85 E.01994
G1 X135.78 Y149.681 E.31885
G2 X136.288 Y149.395 I-.533 J-1.542 E.02115
G1 X136.288 Y141.135 E.29821
G3 X136.795 Y141.491 I-.725 J1.577 E.0225
G1 X136.795 Y149.039 E.27255
G1 X137.303 Y148.554 E.02537
G1 X137.303 Y141.692 E.24776
G1 X125.622 Y140.37 F30000
G1 F3000
G1 X125.622 Y135.335 E.18182
G1 E-.42 F2400
;WIPE_START
G1 F3000
G1 X125.622 Y136.335 E-.18
;WIPE_END
G1 X125.011 Y143.943 Z.6 F30000
G1 X123.591 Y161.616 Z.6
G1 Z.2
G1 E.6 F2400
G1 F3000
G1 X123.591 Y141.596 E.72282
G2 X123.083 Y141.797 I.299 J1.5 E.01982
G1 X123.083 Y160.272 E.66706
G3 X122.619 Y158.199 I5.481 J-2.316 E.07713
G1 X122.575 Y142.07 E.58233
G2 X122.067 Y142.449 I.79 J1.589 E.023
G1 X122.067 Y158.434 E.57716
G1 X121.56 Y158.651 E.01994
G1 X121.56 Y142.854 E.57037
G1 X121.192 Y143.147 E.01699
G1 X121.052 Y142.857 E.01164
G1 X121.052 Y158.768 E.57447
G3 X120.544 Y158.855 I-.495 J-1.355 E.01871
G1 X120.544 Y141.809 E.61547
G1 X120.036 Y141.11 E.0312
G1 X120.036 Y158.878 E.64154
G3 X119.528 Y158.848 I-.172 J-1.414 E.01847
G1 X119.528 Y140.624 E.658
G2 X119.02 Y140.251 I-1.282 J1.213 E.02288
G1 X119.02 Y158.78 E.669
G3 X118.512 Y158.629 I.162 J-1.475 E.01923
G1 X118.512 Y139.951 E.67437
G1 X118.004 Y139.734 E.01994
G1 X118.004 Y158.441 E.67544
G1 X117.497 Y158.168 E.02082
G1 X117.497 Y139.588 E.67083
M73 P0 R59
G2 X116.989 Y139.474 I-.569 J1.342 E.0189
G1 X116.989 Y157.805 E.66187
G3 X116.481 Y157.343 I1.02 J-1.63 E.02493
G1 X116.481 Y150.621 E.24271
G1 X115.973 Y151.202 E.02787
G1 X115.973 Y156.712 E.19895
G3 X115.465 Y155.714 I2.497 J-1.899 E.04065
G1 X115.465 Y149.935 E.20866
G1 X116.481 Y149.436 F30000
G1 F3000
G1 X116.481 Y139.451 E.36052
G2 X115.973 Y139.454 I-.245 J1.401 E.01844
G1 X115.973 Y149.227 E.35285
G1 X115.465 Y149.158 E.0185
G1 X115.465 Y139.523 E.34789
G2 X114.957 Y139.646 I.086 J1.461 E.01897
G1 X114.957 Y155.47 E.57132
G1 X114.449 Y155.955 E.02537
G1 X114.449 Y139.811 E.58289
G2 X113.942 Y140.076 I.474 J1.532 E.02078
G1 X113.942 Y156.398 E.58932
G1 X113.434 Y156.733 E.02197
G1 X113.434 Y140.401 E.5897
G2 X112.926 Y140.812 I.879 J1.605 E.02372
G1 X112.867 Y156.994 E.58428
G3 X112.418 Y157.161 I-.685 J-1.155 E.01741
G1 X112.418 Y141.393 E.56932
G2 X111.91 Y142.218 I12.968 J8.555 E.03498
G1 X111.91 Y146.868 E.16788
G1 X111.91 Y157.488 F30000
G1 F3000
G1 X111.91 Y147.606 E.3568
G1 X111.402 Y147.583 E.01836
G1 X111.402 Y157.341 E.35233
G1 X110.894 Y157.364 E.01836
G1 X110.894 Y147.56 E.35397
G2 X110.386 Y147.613 I-.109 J1.426 E.01853
G1 X110.386 Y157.312 E.35017
G3 X109.879 Y157.233 I-.036 J-1.439 E.01866
G1 X109.879 Y147.692 E.34447
G1 X109.371 Y147.857 E.01928
G1 X109.371 Y157.068 E.33255
G3 X108.863 Y156.853 I.337 J-1.507 E.02001
G1 X108.863 Y148.072 E.31706
G1 X108.589 Y148.219 E.01121
G1 X108.355 Y147.951 E.01286
G1 X108.355 Y156.58 E.31156
G3 X107.847 Y156.184 I.837 J-1.597 E.02338
G1 X107.847 Y141.477 E.531
G2 X107.339 Y140.923 I-1.781 J1.122 E.02728
G1 X107.339 Y155.779 E.53638
G1 X107.153 Y155.63 E.0086
G1 X106.831 Y156.298 E.02677
G1 X106.831 Y149.945 E.22938
G2 X106.324 Y151.07 I2.845 J1.962 E.04479
G1 X106.324 Y157.188 E.2209
G3 X105.816 Y157.792 I-1.918 J-1.097 E.02865
G1 X105.816 Y150.898 E.24891
G2 X105.308 Y150.442 I-1.512 J1.171 E.0248
G1 X105.308 Y158.249 E.28189
G1 X104.8 Y158.584 E.02197
G1 X104.8 Y149.86 E.315
G1 X108.863 Y145.971 F30000
G1 F3000
G2 X108.355 Y142.284 I-7.323 J-.87 E.13585
G1 X108.355 Y147.141 E.1754
G1 X106.831 Y149.434 F30000
G1 F3000
G1 X106.831 Y140.502 E.3225
G1 X106.324 Y140.166 E.02197
G1 X106.324 Y148.804 E.31186
G1 X105.816 Y149.021 E.01994
G1 X105.816 Y139.947 E.32763
G2 X105.308 Y139.769 I-.745 J1.31 E.01954
G1 X105.308 Y149.199 E.34049
G1 X104.8 Y149.315 E.01881
G1 X104.8 Y139.653 E.34886
G2 X104.292 Y139.602 I-.554 J2.954 E.01845
G1 X104.292 Y158.831 E.69431
G3 X103.784 Y159.033 I-.81 J-1.298 E.01984
G1 X103.784 Y139.579 E.70242
M73 P1 R59
G2 X103.276 Y139.644 I-.074 J1.432 E.01859
G1 X103.276 Y159.149 E.70424
G3 X102.768 Y159.222 I-.455 J-1.363 E.01863
G1 X102.768 Y139.737 E.70354
G1 X102.261 Y139.902 E.01928
G1 X102.261 Y159.245 E.69841
G3 X101.753 Y159.201 I-.133 J-1.421 E.0185
G1 X101.753 Y140.131 E.68853
G2 X101.245 Y140.414 I.524 J1.54 E.0211
G1 X101.245 Y148.554 E.2939
G1 X100.737 Y148.149 E.02345
G1 X100.737 Y140.819 E.26466
G2 X100.229 Y141.35 I1.209 J1.665 E.02667
G1 X100.229 Y147.618 E.22631
G3 X99.721 Y146.882 I1.773 J-1.767 E.03245
G1 X99.721 Y142.086 E.17319
G2 X99.213 Y143.39 I4.605 J2.544 E.0507
G1 X99.213 Y146.273 E.10408
G1 E-.42 F2400
;WIPE_START
G1 F3000
G1 X99.213 Y145.273 E-.18
;WIPE_END
G1 X100.304 Y152.827 Z.6 F30000
G1 X101.245 Y159.34 Z.6
G1 Z.2
G1 E.6 F2400
G1 F3000
G1 X101.245 Y149.559 E.35313
G1 X100.737 Y149.724 E.01928
G1 X100.737 Y158.966 E.33368
G3 X100.229 Y158.762 I.309 J-1.501 E.01987
G1 X100.229 Y149.929 E.31893
G1 X99.721 Y150.202 E.02082
G1 X99.721 Y158.489 E.2992
G3 X99.213 Y158.105 I.802 J-1.591 E.0231
G1 X99.213 Y150.585 E.27151
G2 X98.706 Y151.075 I1.095 J1.644 E.02561
G1 X98.706 Y157.615 E.23615
G3 X98.198 Y156.943 I1.599 J-1.736 E.0306
G1 X98.198 Y151.748 E.18757
G2 X97.69 Y152.825 I2.713 J1.938 E.04322
G1 X97.69 Y156.451 E.13095
G1 E-.42 F2400
;WIPE_START
G1 F3000
G1 X97.69 Y155.451 E-.18
;WIPE_END
G1 X104.15 Y151.387 Z.6 F30000
G1 X142.686 Y127.143 Z.6
G1 Z.2
G1 E.6 F2400
;TYPE:Inner wall
G1 F3000
G1 X197.357 Y127.143 E1.97396
G1 X197.357 Y172.857 E1.65056
G1 X142.643 Y172.857 E1.97551
G1 X142.643 Y127.143 E1.65056
G1 X142.646 Y127.143 E.00011
G1 X143.1 Y127.6 F30000
;TYPE:Outer wall
G1 F3000
G1 X196.9 Y127.6 E1.9425
G1 X196.9 Y172.4 E1.61755
G1 X143.1 Y172.4 E1.9425
G1 X143.1 Y127.64 E1.6161
G1 E-.42 F2400
;WIPE_START
G1 F3000
G1 X144.1 Y127.639 E-.18
;WIPE_END
G1 X139.857 Y123.857 Z.6 F30000
G1 Z.2
G1 E.6 F2400
;TYPE:Inner wall
G1 F3000
G1 X200.643 Y123.857 E2.19473
G1 X200.643 Y176.143 E1.88783
G1 X139.357 Y176.143 E2.21279
G1 X139.357 Y123.857 E1.88783
G1 X139.817 Y123.857 E.01661
G1 X138.9 Y123.4 F30000
;TYPE:Outer wall
G1 F3000
G1 X201.1 Y123.4 E2.24579
G1 X201.1 Y176.6 E1.92084
G1 X138.9 Y176.6 E2.24579
G1 X138.9 Y123.44 E1.9194
G1 E-.42 F2400
;WIPE_START
G1 F3000
G1 X139.9 Y123.439 E-.18
;WIPE_END
G1 X147.53 Y123.623 Z.6 F30000
G1 X200.529 Y124.896 Z.6
G1 Z.2
G1 E.6 F2400
;TYPE:Bottom surface
;WIDTH:0.500341
G1 F6300
G1 X199.81 Y124.177 E.03674
G1 X199.163 Y124.177 E.02337
G1 X200.323 Y125.337 E.05929
G1 X200.323 Y125.984 E.02337
G1 X198.516 Y124.177 E.09234
G1 X197.869 Y124.177 E.02337
G1 X200.323 Y126.631 E.1254
G1 X200.323 Y127.278 E.02337
G1 X197.222 Y124.177 E.15845
G1 X196.575 Y124.177 E.02337
G1 X200.323 Y127.925 E.19151
G1 X200.323 Y128.572 E.02337
G1 X195.928 Y124.177 E.22457
G1 X195.281 Y124.177 E.02337
G1 X200.323 Y129.219 E.25762
G1 X200.323 Y129.865 E.02337
G1 X194.635 Y124.177 E.29068
G1 X193.988 Y124.177 E.02337
G1 X196.634 Y126.823 E.13521
G1 X195.987 Y126.823 E.02337
G1 X193.341 Y124.177 E.13521
G1 X192.694 Y124.177 E.02337
G1 X195.34 Y126.823 E.13521
G1 X194.693 Y126.823 E.02337
G1 X192.047 Y124.177 E.13521
G1 X191.4 Y124.177 E.02337
G1 X194.046 Y126.823 E.13521
G1 X193.399 Y126.823 E.02337
G1 X190.753 Y124.177 E.13521
G1 X190.106 Y124.177 E.02337
G1 X192.752 Y126.823 E.13521
G1 X192.105 Y126.823 E.02337
G1 X189.459 Y124.177 E.13521
G1 X188.812 Y124.177 E.02337
G1 X191.458 Y126.823 E.13521
G1 X190.812 Y126.823 E.02337
G1 X188.166 Y124.177 E.13521
G1 X187.519 Y124.177 E.02337
G1 X190.165 Y126.823 E.13521
G1 X189.518 Y126.823 E.02337
G1 X186.872 Y124.177 E.13521
G1 X186.225 Y124.177 E.02337
G1 X188.871 Y126.823 E.13521
G1 X188.224 Y126.823 E.02337
G1 X185.578 Y124.177 E.13521
G1 X184.931 Y124.177 E.02337
G1 X187.577 Y126.823 E.13521
G1 X186.93 Y126.823 E.02337
G1 X184.284 Y124.177 E.13521
G1 X183.637 Y124.177 E.02337
G1 X186.283 Y126.823 E.13521
G1 X185.636 Y126.823 E.02337
G1 X182.99 Y124.177 E.13521
G1 X182.344 Y124.177 E.02337
G1 X184.99 Y126.823 E.13521
G1 X184.343 Y126.823 E.02337
G1 X181.697 Y124.177 E.13521
G1 X181.05 Y124.177 E.02337
G1 X183.696 Y126.823 E.13521
G1 X183.049 Y126.823 E.02337
G1 X180.403 Y124.177 E.13521
G1 X179.756 Y124.177 E.02337
G1 X182.402 Y126.823 E.13521
G1 X181.755 Y126.823 E.02337
G1 X179.109 Y124.177 E.13521
G1 X178.462 Y124.177 E.02337
G1 X181.108 Y126.823 E.13521
G1 X180.461 Y126.823 E.02337
G1 X177.815 Y124.177 E.13521
G1 X177.168 Y124.177 E.02337
G1 X179.814 Y126.823 E.13521
G1 X179.167 Y126.823 E.02337
G1 X176.522 Y124.177 E.13521
G1 X175.875 Y124.177 E.02337
G1 X178.521 Y126.823 E.13521
G1 X177.874 Y126.823 E.02337
G1 X175.228 Y124.177 E.13521
G1 X174.581 Y124.177 E.02337
G1 X177.227 Y126.823 E.13521
G1 X176.58 Y126.823 E.02337
G1 X173.934 Y124.177 E.13521
G1 X173.287 Y124.177 E.02337
G1 X175.933 Y126.823 E.13521
G1 X175.286 Y126.823 E.02337
G1 X172.64 Y124.177 E.13521
G1 X171.993 Y124.177 E.02337
G1 X174.639 Y126.823 E.13521
G1 X173.992 Y126.823 E.02337
G1 X171.346 Y124.177 E.13521
G1 X170.7 Y124.177 E.02337
G1 X173.345 Y126.823 E.13521
G1 X172.699 Y126.823 E.02337
G1 X170.053 Y124.177 E.13521
G1 X169.406 Y124.177 E.02337
G1 X172.052 Y126.823 E.13521
G1 X171.405 Y126.823 E.02337
G1 X168.759 Y124.177 E.13521
G1 X168.112 Y124.177 E.02337
G1 X170.758 Y126.823 E.13521
G1 X170.111 Y126.823 E.02337
G1 X167.465 Y124.177 E.13521
G1 X166.818 Y124.177 E.02337
G1 X169.464 Y126.823 E.13521
G1 X168.817 Y126.823 E.02337
G1 X166.171 Y124.177 E.13521
G1 X165.524 Y124.177 E.02337
G1 X168.17 Y126.823 E.13521
G1 X167.523 Y126.823 E.02337
G1 X164.878 Y124.177 E.13521
G1 X164.231 Y124.177 E.02337
G1 X166.877 Y126.823 E.13521
G1 X166.23 Y126.823 E.02337
G1 X163.584 Y124.177 E.13521
G1 X162.937 Y124.177 E.02337
G1 X165.583 Y126.823 E.13521
G1 X164.936 Y126.823 E.02337
G1 X162.29 Y124.177 E.13521
G1 X161.643 Y124.177 E.02337
G1 X164.289 Y126.823 E.13521
G1 X163.642 Y126.823 E.02337
