; HEADER_BLOCK_START
; generated by Creality_Print V5.1.4.10249 on 2024-11-10 at 18:54:43
; total layer number: 50
; filament_density: 1.24
; filament_diameter: 1.75
; max_z_height: 10.00
; HEADER_BLOCK_END

; MINX = 120.00
; MINY = 134.00
; MINZ = 0.00
; MAXX = 180.00
; MAXY = 177.00
; MAXZ = 10.00

; THUMBNAIL_BLOCK_START

;
; THUMBNAIL_BLOCK_END

; THUMBNAIL_BLOCK_START

;
; THUMBNAIL_BLOCK_END

; external perimeters extrusion width = 0.42mm
; perimeters extrusion width = 0.45mm
; infill extrusion width = 0.45mm
; solid infill extrusion width = 0.42mm
; top infill extrusion width = 0.42mm
; first layer extrusion width = 0.50mm

; external perimeters extrusion width = 0.42mm
; perimeters extrusion width = 0.45mm
; infill extrusion width = 0.45mm
; solid infill extrusion width = 0.42mm
; top infill extrusion width = 0.42mm
; first layer extrusion width = 0.50mm

; external perimeters extrusion width = 0.42mm
; perimeters extrusion width = 0.45mm
; infill extrusion width = 0.45mm
; solid infill extrusion width = 0.42mm
; top infill extrusion width = 0.42mm
; first layer extrusion width = 0.50mm

; external perimeters extrusion width = 0.42mm
; perimeters extrusion width = 0.45mm
; infill extrusion width = 0.45mm
; solid infill extrusion width = 0.42mm
; top infill extrusion width = 0.42mm
; first layer extrusion width = 0.50mm

; EXECUTABLE_BLOCK_START
EXCLUDE_OBJECT_DEFINE NAME=side_nut.stl_id_0_copy_0 CENTER=150,150 POLYGON=[[120,145],[180,145],[180,155],[120,155],[120,145]]
EXCLUDE_OBJECT_DEFINE NAME=side_nut.stl_id_1_copy_0 CENTER=150,160.998 POLYGON=[[120,155.998],[180,155.998],[180,165.998],[120,165.998],[120,155.998]]
EXCLUDE_OBJECT_DEFINE NAME=side_nut.stl_id_2_copy_0 CENTER=150,139.001 POLYGON=[[120,134.001],[180,134.001],[180,144.001],[120,144.001],[120,134.001]]
EXCLUDE_OBJECT_DEFINE NAME=side_nut.stl_id_3_copy_0 CENTER=150,171.995 POLYGON=[[120,166.995],[180,166.995],[180,176.995],[120,176.995],[120,166.995]]
M73 P0 R22
M106 S0
M106 P2 S0
;TYPE:Custom
M140 S0
M104 S0 
START_PRINT EXTRUDER_TEMP=220 BED_TEMP=50
M141 S35;set chamber_temperature
G90
G21
M83 ; use relative distances for extrusion
; filament start gcode
M106 S0
;LAYER_CHANGE
;Z:0.2
;HEIGHT:0.2
;BEFORE_LAYER_CHANGE
;0.2
G92 E0

G1 E-.6 F2400
;AFTER_LAYER_CHANGE
;0.2
;_SET_FAN_SPEED_CHANGING_LAYER
SET_VELOCITY_LIMIT ACCEL=1000 ACCEL_TO_DECEL=1000
SET_VELOCITY_LIMIT SQUARE_CORNER_VELOCITY=20
; printing object side_nut.stl id:2 copy 0
EXCLUDE_OBJECT_START NAME=side_nut.stl_id_2_copy_0
G1 X178.643 Y143.144 F30000
G1 Z.4
G1 Z.2
G1 E.6 F2400
;TYPE:Inner wall
;WIDTH:0.5
G1 F3000
G1 X120.857 Y143.144 E2.08642
G1 X120.857 Y134.858 E.29917
G1 X179.143 Y134.858 E2.10447
G1 X179.143 Y143.144 E.29917
G1 X178.683 Y143.144 E.01661
G1 X179.6 Y143.601 F30000
;TYPE:Outer wall
G1 F3000
G1 X120.4 Y143.601 E2.13748
G1 X120.4 Y134.401 E.33218
G1 X179.6 Y134.401 E2.13748
G1 X179.6 Y143.561 E.33073
G1 E-.42 F2400
;WIPE_START
G1 F3000
G1 X178.6 Y143.562 E-.18
;WIPE_END
G1 X178.157 Y135.942 Z.6 F30000
G1 X178.101 Y134.972 Z.6
G1 Z.2
G1 E.6 F2400
;TYPE:Bottom surface
;WIDTH:0.501887
G1 F6300
G1 X178.823 Y135.695 E.03703
G1 X178.823 Y136.344 E.02353
G1 X177.657 Y135.178 E.05977
G1 X177.008 Y135.178 E.02353
G1 X178.823 Y136.993 E.09305
G1 X178.823 Y137.642 E.02353
G1 X176.359 Y135.178 E.12633
G1 X175.71 Y135.178 E.02353
G1 X178.823 Y138.291 E.15961
G1 X178.823 Y138.94 E.02353
G1 X175.061 Y135.178 E.19289
G1 X174.412 Y135.178 E.02353
G1 X178.823 Y139.589 E.22617
G1 X178.823 Y140.238 E.02353
G1 X173.763 Y135.178 E.25945
G1 X173.114 Y135.178 E.02353
G1 X178.823 Y140.887 E.29273
G1 X178.823 Y141.536 E.02353
G1 X172.465 Y135.178 E.32601
G1 X171.816 Y135.178 E.02353
G1 X178.823 Y142.185 E.35929
G1 X178.823 Y142.824 E.02315
G1 X171.167 Y135.178 E.3923
G1 X170.517 Y135.178 E.02353
G1 X178.163 Y142.824 E.39203
G1 X177.514 Y142.824 E.02353
G1 X169.868 Y135.178 E.39203
G1 X169.219 Y135.178 E.02353
G1 X176.865 Y142.824 E.39203
G1 X176.216 Y142.824 E.02353
G1 X168.57 Y135.178 E.39203
G1 X167.921 Y135.178 E.02353
G1 X175.567 Y142.824 E.39203
G1 X174.918 Y142.824 E.02353
G1 X167.272 Y135.178 E.39203
G1 X166.623 Y135.178 E.02353
G1 X174.269 Y142.824 E.39203
G1 X173.62 Y142.824 E.02353
G1 X165.974 Y135.178 E.39203
G1 X165.325 Y135.178 E.02353
G1 X172.971 Y142.824 E.39203
G1 X172.322 Y142.824 E.02353
G1 X164.676 Y135.178 E.39203
G1 X164.027 Y135.178 E.02353
G1 X171.673 Y142.824 E.39203
G1 X171.024 Y142.824 E.02353
G1 X163.378 Y135.178 E.39203
G1 X162.729 Y135.178 E.02353
G1 X170.374 Y142.824 E.39203
G1 X169.725 Y142.824 E.02353
G1 X162.079 Y135.178 E.39203
G1 X161.43 Y135.178 E.02353
G1 X169.076 Y142.824 E.39203
G1 X168.427 Y142.824 E.02353
G1 X160.781 Y135.178 E.39203
G1 X160.132 Y135.178 E.02353
G1 X167.778 Y142.824 E.39203
G1 X167.129 Y142.824 E.02353
G1 X159.483 Y135.178 E.39203
G1 X158.834 Y135.178 E.02353
G1 X166.48 Y142.824 E.39203
G1 X165.831 Y142.824 E.02353
G1 X158.185 Y135.178 E.39203
G1 X157.536 Y135.178 E.02353
G1 X165.182 Y142.824 E.39203
G1 X164.533 Y142.824 E.02353
G1 X156.887 Y135.178 E.39203
G1 X156.238 Y135.178 E.02353
G1 X163.884 Y142.824 E.39203
G1 X163.235 Y142.824 E.02353
G1 X155.589 Y135.178 E.39203
G1 X154.94 Y135.178 E.02353
G1 X162.586 Y142.824 E.39203
G1 X161.936 Y142.824 E.02353
G1 X154.29 Y135.178 E.39203
G1 X153.641 Y135.178 E.02353
G1 X161.287 Y142.824 E.39203
G1 X160.638 Y142.824 E.02353
G1 X152.992 Y135.178 E.39203
G1 X152.343 Y135.178 E.02353
M73 P1 R22
G1 X159.989 Y142.824 E.39203
G1 X159.34 Y142.824 E.02353
G1 X151.694 Y135.178 E.39203
G1 X151.045 Y135.178 E.02353
G1 X158.691 Y142.824 E.39203
G1 X158.042 Y142.824 E.02353
G1 X150.396 Y135.178 E.39203
G1 X149.747 Y135.178 E.02353
G1 X157.393 Y142.824 E.39203
G1 X156.744 Y142.824 E.02353
G1 X149.098 Y135.178 E.39203
G1 X148.449 Y135.178 E.02353
G1 X156.095 Y142.824 E.39203
G1 X155.446 Y142.824 E.02353
G1 X147.8 Y135.178 E.39203
G1 X147.151 Y135.178 E.02353
G1 X154.797 Y142.824 E.39203
G1 X154.148 Y142.824 E.02353
G1 X146.502 Y135.178 E.39203
G1 X145.852 Y135.178 E.02353
G1 X153.498 Y142.824 E.39203
G1 X152.849 Y142.824 E.02353
G1 X145.203 Y135.178 E.39203
G1 X144.554 Y135.178 E.02353
G1 X152.2 Y142.824 E.39203
G1 X151.551 Y142.824 E.02353
G1 X143.905 Y135.178 E.39203
G1 X143.256 Y135.178 E.02353
G1 X150.902 Y142.824 E.39203
G1 X150.253 Y142.824 E.02353
G1 X142.607 Y135.178 E.39203
G1 X141.958 Y135.178 E.02353
G1 X149.604 Y142.824 E.39203
G1 X148.955 Y142.824 E.02353
G1 X141.309 Y135.178 E.39203
G1 X140.66 Y135.178 E.02353
G1 X148.306 Y142.824 E.39203
G1 X147.657 Y142.824 E.02353
G1 X140.011 Y135.178 E.39203
G1 X139.362 Y135.178 E.02353
G1 X147.008 Y142.824 E.39203
G1 X146.359 Y142.824 E.02353
G1 X138.713 Y135.178 E.39203
G1 X138.064 Y135.178 E.02353
G1 X145.71 Y142.824 E.39203
G1 X145.06 Y142.824 E.02353
G1 X137.414 Y135.178 E.39203
G1 X136.765 Y135.178 E.02353
G1 X144.411 Y142.824 E.39203
G1 X143.762 Y142.824 E.02353
G1 X136.116 Y135.178 E.39203
G1 X135.467 Y135.178 E.02353
G1 X143.113 Y142.824 E.39203
G1 X142.464 Y142.824 E.02353
G1 X134.818 Y135.178 E.39203
G1 X134.169 Y135.178 E.02353
G1 X141.815 Y142.824 E.39203
G1 X141.166 Y142.824 E.02353
G1 X133.52 Y135.178 E.39203
G1 X132.871 Y135.178 E.02353
G1 X140.517 Y142.824 E.39203
G1 X139.868 Y142.824 E.02353
G1 X132.222 Y135.178 E.39203
G1 X131.573 Y135.178 E.02353
G1 X139.219 Y142.824 E.39203
G1 X138.57 Y142.824 E.02353
G1 X130.924 Y135.178 E.39203
G1 X130.275 Y135.178 E.02353
G1 X137.921 Y142.824 E.39203
G1 X137.271 Y142.824 E.02353
G1 X129.626 Y135.178 E.39203
G1 X128.976 Y135.178 E.02353
G1 X136.622 Y142.824 E.39203
G1 X135.973 Y142.824 E.02353
G1 X128.327 Y135.178 E.39203
G1 X127.678 Y135.178 E.02353
G1 X135.324 Y142.824 E.39203
G1 X134.675 Y142.824 E.02353
G1 X127.029 Y135.178 E.39203
G1 X126.38 Y135.178 E.02353
G1 X134.026 Y142.824 E.39203
G1 X133.377 Y142.824 E.02353
G1 X125.731 Y135.178 E.39203
G1 X125.082 Y135.178 E.02353
G1 X132.728 Y142.824 E.39203
G1 X132.079 Y142.824 E.02353
G1 X124.433 Y135.178 E.39203
G1 X123.784 Y135.178 E.02353
G1 X131.43 Y142.824 E.39203
G1 X130.781 Y142.824 E.02353
G1 X123.135 Y135.178 E.39203
G1 X122.486 Y135.178 E.02353
G1 X130.132 Y142.824 E.39203
G1 X129.483 Y142.824 E.02353
G1 X121.837 Y135.178 E.39203
G1 X121.188 Y135.178 E.02353
G1 X128.833 Y142.824 E.39203
G1 X128.184 Y142.824 E.02353
G1 X121.177 Y135.817 E.35929
G1 X121.177 Y136.466 E.02353
G1 X127.535 Y142.824 E.32601
G1 X126.886 Y142.824 E.02353
G1 X121.177 Y137.115 E.29273
G1 X121.177 Y137.764 E.02353
G1 X126.237 Y142.824 E.25945
G1 X125.588 Y142.824 E.02353
G1 X121.177 Y138.413 E.22617
G1 X121.177 Y139.062 E.02353
G1 X124.939 Y142.824 E.19289
G1 X124.29 Y142.824 E.02353
G1 X121.177 Y139.711 E.15961
G1 X121.177 Y140.36 E.02353
G1 X123.641 Y142.824 E.12633
G1 X122.992 Y142.824 E.02353
G1 X121.177 Y141.009 E.09305
G1 X121.177 Y141.658 E.02353
G1 X122.343 Y142.824 E.05977
G1 X121.694 Y142.824 E.02353
G1 X120.971 Y142.102 E.03703
; stop printing object side_nut.stl id:2 copy 0
; printing object side_nut.stl id:0 copy 0
G1 E-.42 F2400
;WIPE_START
G1 F6300
G1 X121.678 Y142.809 E-.18
;WIPE_END
EXCLUDE_OBJECT_END NAME=side_nut.stl_id_2_copy_0
EXCLUDE_OBJECT_START NAME=side_nut.stl_id_0_copy_0
G1 X129.164 Y144.298 Z.6 F30000
G1 X178.643 Y154.143 Z.6
G1 Z.2
G1 E.6 F2400
;TYPE:Inner wall
;WIDTH:0.5
G1 F3000
G1 X120.857 Y154.143 E2.08642
G1 X120.857 Y145.857 E.29917
G1 X179.143 Y145.857 E2.10447
M73 P2 R22
G1 X179.143 Y154.143 E.29917
G1 X178.683 Y154.143 E.01661
G1 X179.6 Y154.6 F30000
;TYPE:Outer wall
G1 F3000
G1 X120.4 Y154.6 E2.13748
G1 X120.4 Y145.4 E.33218
G1 X179.6 Y145.4 E2.13748
G1 X179.6 Y154.56 E.33073
G1 E-.42 F2400
;WIPE_START
G1 F3000
G1 X178.6 Y154.561 E-.18
;WIPE_END
G1 X178.157 Y146.941 Z.6 F30000
G1 X178.101 Y145.971 Z.6
G1 Z.2
G1 E.6 F2400
;TYPE:Bottom surface
;WIDTH:0.501887
G1 F6300
G1 X178.823 Y146.694 E.03703
G1 X178.823 Y147.343 E.02353
G1 X177.657 Y146.177 E.05977
G1 X177.008 Y146.177 E.02353
G1 X178.823 Y147.992 E.09305
G1 X178.823 Y148.641 E.02353
G1 X176.359 Y146.177 E.12633
G1 X175.71 Y146.177 E.02353
G1 X178.823 Y149.29 E.15961
G1 X178.823 Y149.939 E.02353
G1 X175.061 Y146.177 E.19289
G1 X174.412 Y146.177 E.02353
G1 X178.823 Y150.588 E.22617
G1 X178.823 Y151.237 E.02353
G1 X173.763 Y146.177 E.25945
G1 X173.114 Y146.177 E.02353
G1 X178.823 Y151.886 E.29273
G1 X178.823 Y152.535 E.02353
G1 X172.465 Y146.177 E.32601
G1 X171.816 Y146.177 E.02353
G1 X178.823 Y153.184 E.35929
G1 X178.823 Y153.823 E.02315
G1 X171.167 Y146.177 E.3923
G1 X170.517 Y146.177 E.02353
G1 X178.163 Y153.823 E.39203
G1 X177.514 Y153.823 E.02353
G1 X169.868 Y146.177 E.39203
G1 X169.219 Y146.177 E.02353
G1 X176.865 Y153.823 E.39203
G1 X176.216 Y153.823 E.02353
G1 X168.57 Y146.177 E.39203
G1 X167.921 Y146.177 E.02353
G1 X175.567 Y153.823 E.39203
G1 X174.918 Y153.823 E.02353
G1 X167.272 Y146.177 E.39203
G1 X166.623 Y146.177 E.02353
G1 X174.269 Y153.823 E.39203
G1 X173.62 Y153.823 E.02353
G1 X165.974 Y146.177 E.39203
G1 X165.325 Y146.177 E.02353
G1 X172.971 Y153.823 E.39203
G1 X172.322 Y153.823 E.02353
G1 X164.676 Y146.177 E.39203
G1 X164.027 Y146.177 E.02353
G1 X171.673 Y153.823 E.39203
G1 X171.024 Y153.823 E.02353
G1 X163.378 Y146.177 E.39203
G1 X162.729 Y146.177 E.02353
G1 X170.374 Y153.823 E.39203
G1 X169.725 Y153.823 E.02353
G1 X162.079 Y146.177 E.39203
G1 X161.43 Y146.177 E.02353
G1 X169.076 Y153.823 E.39203
G1 X168.427 Y153.823 E.02353
G1 X160.781 Y146.177 E.39203
G1 X160.132 Y146.177 E.02353
G1 X167.778 Y153.823 E.39203
G1 X167.129 Y153.823 E.02353
G1 X159.483 Y146.177 E.39203
G1 X158.834 Y146.177 E.02353
G1 X166.48 Y153.823 E.39203
G1 X165.831 Y153.823 E.02353
G1 X158.185 Y146.177 E.39203
G1 X157.536 Y146.177 E.02353
G1 X165.182 Y153.823 E.39203
G1 X164.533 Y153.823 E.02353
G1 X156.887 Y146.177 E.39203
G1 X156.238 Y146.177 E.02353
G1 X163.884 Y153.823 E.39203
G1 X163.235 Y153.823 E.02353
G1 X155.589 Y146.177 E.39203
G1 X154.94 Y146.177 E.02353
G1 X162.586 Y153.823 E.39203
G1 X161.936 Y153.823 E.02353
G1 X154.29 Y146.177 E.39203
G1 X153.641 Y146.177 E.02353
G1 X161.287 Y153.823 E.39203
G1 X160.638 Y153.823 E.02353
G1 X152.992 Y146.177 E.39203
G1 X152.343 Y146.177 E.02353
G1 X159.989 Y153.823 E.39203
G1 X159.34 Y153.823 E.02353
G1 X151.694 Y146.177 E.39203
G1 X151.045 Y146.177 E.02353
G1 X158.691 Y153.823 E.39203
G1 X158.042 Y153.823 E.02353
G1 X150.396 Y146.177 E.39203
G1 X149.747 Y146.177 E.02353
G1 X157.393 Y153.823 E.39203
G1 X156.744 Y153.823 E.02353
G1 X149.098 Y146.177 E.39203
G1 X148.449 Y146.177 E.02353
G1 X156.095 Y153.823 E.39203
G1 X155.446 Y153.823 E.02353
G1 X147.8 Y146.177 E.39203
G1 X147.151 Y146.177 E.02353
G1 X154.797 Y153.823 E.39203
G1 X154.148 Y153.823 E.02353
G1 X146.502 Y146.177 E.39203
G1 X145.852 Y146.177 E.02353
G1 X153.498 Y153.823 E.39203
G1 X152.849 Y153.823 E.02353
G1 X145.203 Y146.177 E.39203
G1 X144.554 Y146.177 E.02353
G1 X152.2 Y153.823 E.39203
G1 X151.551 Y153.823 E.02353
G1 X143.905 Y146.177 E.39203
G1 X143.256 Y146.177 E.02353
G1 X150.902 Y153.823 E.39203
G1 X150.253 Y153.823 E.02353
G1 X142.607 Y146.177 E.39203
G1 X141.958 Y146.177 E.02353
G1 X149.604 Y153.823 E.39203
G1 X148.955 Y153.823 E.02353
G1 X141.309 Y146.177 E.39203
G1 X140.66 Y146.177 E.02353
G1 X148.306 Y153.823 E.39203
G1 X147.657 Y153.823 E.02353
M73 P3 R22
G1 X140.011 Y146.177 E.39203
G1 X139.362 Y146.177 E.02353
G1 X147.008 Y153.823 E.39203
G1 X146.359 Y153.823 E.02353
G1 X138.713 Y146.177 E.39203
G1 X138.064 Y146.177 E.02353
G1 X145.71 Y153.823 E.39203
G1 X145.06 Y153.823 E.02353
G1 X137.414 Y146.177 E.39203
G1 X136.765 Y146.177 E.02353
G1 X144.411 Y153.823 E.39203
G1 X143.762 Y153.823 E.02353
G1 X136.116 Y146.177 E.39203
G1 X135.467 Y146.177 E.02353
G1 X143.113 Y153.823 E.39203
G1 X142.464 Y153.823 E.02353
G1 X134.818 Y146.177 E.39203
G1 X134.169 Y146.177 E.02353
G1 X141.815 Y153.823 E.39203
G1 X141.166 Y153.823 E.02353
G1 X133.52 Y146.177 E.39203
G1 X132.871 Y146.177 E.02353
G1 X140.517 Y153.823 E.39203
G1 X139.868 Y153.823 E.02353
G1 X132.222 Y146.177 E.39203
G1 X131.573 Y146.177 E.02353
G1 X139.219 Y153.823 E.39203
G1 X138.57 Y153.823 E.02353
G1 X130.924 Y146.177 E.39203
G1 X130.275 Y146.177 E.02353
G1 X137.921 Y153.823 E.39203
G1 X137.271 Y153.823 E.02353
G1 X129.626 Y146.177 E.39203
G1 X128.976 Y146.177 E.02353
G1 X136.622 Y153.823 E.39203
G1 X135.973 Y153.823 E.02353
G1 X128.327 Y146.177 E.39203
G1 X127.678 Y146.177 E.02353
G1 X135.324 Y153.823 E.39203
G1 X134.675 Y153.823 E.02353
G1 X127.029 Y146.177 E.39203
G1 X126.38 Y146.177 E.02353
G1 X134.026 Y153.823 E.39203
G1 X133.377 Y153.823 E.02353
G1 X125.731 Y146.177 E.39203
G1 X125.082 Y146.177 E.02353
G1 X132.728 Y153.823 E.39203
G1 X132.079 Y153.823 E.02353
G1 X124.433 Y146.177 E.39203
G1 X123.784 Y146.177 E.02353
G1 X131.43 Y153.823 E.39203
G1 X130.781 Y153.823 E.02353
G1 X123.135 Y146.177 E.39203
G1 X122.486 Y146.177 E.02353
G1 X130.132 Y153.823 E.39203
G1 X129.483 Y153.823 E.02353
G1 X121.837 Y146.177 E.39203
G1 X121.188 Y146.177 E.02353
G1 X128.833 Y153.823 E.39203
G1 X128.184 Y153.823 E.02353
G1 X121.177 Y146.816 E.35929
G1 X121.177 Y147.465 E.02353
G1 X127.535 Y153.823 E.32601
G1 X126.886 Y153.823 E.02353
G1 X121.177 Y148.114 E.29273
G1 X121.177 Y148.763 E.02353
G1 X126.237 Y153.823 E.25945
G1 X125.588 Y153.823 E.02353
G1 X121.177 Y149.412 E.22617
G1 X121.177 Y150.061 E.02353
G1 X124.939 Y153.823 E.19289
G1 X124.29 Y153.823 E.02353
G1 X121.177 Y150.71 E.15961
G1 X121.177 Y151.359 E.02353
G1 X123.641 Y153.823 E.12633
G1 X122.992 Y153.823 E.02353
G1 X121.177 Y152.008 E.09305
G1 X121.177 Y152.657 E.02353
G1 X122.343 Y153.823 E.05977
G1 X121.694 Y153.823 E.02353
G1 X120.971 Y153.101 E.03703
; stop printing object side_nut.stl id:0 copy 0
; printing object side_nut.stl id:1 copy 0
G1 E-.42 F2400
;WIPE_START
G1 F6300
G1 X121.678 Y153.808 E-.18
;WIPE_END
EXCLUDE_OBJECT_END NAME=side_nut.stl_id_0_copy_0
EXCLUDE_OBJECT_START NAME=side_nut.stl_id_1_copy_0
G1 X129.164 Y155.297 Z.6 F30000
G1 X178.643 Y165.141 Z.6
G1 Z.2
G1 E.6 F2400
;TYPE:Inner wall
;WIDTH:0.5
G1 F3000
G1 X120.857 Y165.141 E2.08642
G1 X120.857 Y156.855 E.29917
G1 X179.143 Y156.855 E2.10447
G1 X179.143 Y165.141 E.29917
