; HEADER_BLOCK_START
; generated by Creality_Print V5.1.4.10249 on 2024-11-17 at 02:18:34
; total layer number: 168
; filament_density: 1.24
; filament_diameter: 1.75
; max_z_height: 26.92
; HEADER_BLOCK_END

; MINX = 256.81
; MINY = 80.91
; MINZ = -0.00
; MAXX = 272.81
; MAXY = 96.91
; MAXZ = 27.00

; THUMBNAIL_BLOCK_START

;
; THUMBNAIL_BLOCK_END

; THUMBNAIL_BLOCK_START

;
; THUMBNAIL_BLOCK_END

; external perimeters extrusion width = 0.42mm
; perimeters extrusion width = 0.45mm
; infill extrusion width = 0.45mm
; solid infill extrusion width = 0.42mm
; top infill extrusion width = 0.42mm
; first layer extrusion width = 0.50mm

; EXECUTABLE_BLOCK_START
EXCLUDE_OBJECT_DEFINE NAME=coupling_motor_lead_screw.stl_id_0_copy_0 CENTER=264.807,88.9094 POLYGON=[[256.807,88.9094],[256.875,87.8652],[257.079,86.8389],[257.416,85.848],[257.879,84.9094],[258.46,84.0393],[259.15,83.2526],[259.937,82.5626],[260.807,81.9812],[261.745,81.5184],[262.736,81.182],[263.763,80.9779],[264.807,80.9094],[265.851,80.9779],[266.877,81.182],[267.868,81.5184],[268.807,81.9812],[269.677,82.5626],[270.464,83.2526],[271.154,84.0393],[271.735,84.9094],[272.198,85.848],[272.534,86.8389],[272.738,87.8652],[272.807,88.9094],[272.738,89.9536],[272.534,90.98],[272.198,91.9709],[271.735,92.9094],[271.154,93.7795],[270.464,94.5663],[269.677,95.2562],[268.807,95.8376],[267.868,96.3005],[266.877,96.6368],[265.851,96.841],[264.807,96.9094],[263.763,96.841],[262.736,96.6368],[261.745,96.3005],[260.807,95.8376],[259.937,95.2562],[259.15,94.5663],[258.46,93.7795],[257.879,92.9094],[257.416,91.9709],[257.079,90.98],[256.875,89.9536],[256.807,88.9094]]
M73 P0 R17
M106 S0
M106 P2 S0
;TYPE:Custom
M140 S0
M104 S0 
START_PRINT EXTRUDER_TEMP=220 BED_TEMP=50
M141 S35;set chamber_temperature
G90
G21
M83 ; use relative distances for extrusion
; filament start gcode
M106 S0
;LAYER_CHANGE
;Z:0.2
;HEIGHT:0.2
;BEFORE_LAYER_CHANGE
;0.2
G92 E0

G1 E-.6 F2400
;AFTER_LAYER_CHANGE
;0.2
;_SET_FAN_SPEED_CHANGING_LAYER
SET_VELOCITY_LIMIT ACCEL=1000 ACCEL_TO_DECEL=1000
SET_VELOCITY_LIMIT SQUARE_CORNER_VELOCITY=20
; printing object coupling_motor_lead_screw.stl id:0 copy 0
EXCLUDE_OBJECT_START NAME=coupling_motor_lead_screw.stl_id_0_copy_0
G1 X262.591 Y84.495 F30000
G1 Z.4
G1 Z.2
G1 E.6 F2400
;TYPE:Inner wall
;WIDTH:0.5
G1 F3000
G1 X263.015 Y84.284 E.01709
G1 X263.895 Y84.033 E.03305
G1 X264.347 Y83.991 E.01637
G1 X264.798 Y83.95 E.01634
G1 X265.717 Y84.033 E.03335
G1 X266.599 Y84.284 E.03308
G1 X267.418 Y84.692 E.03305
G1 X268.149 Y85.243 E.03305
G1 X268.766 Y85.92 E.03305
G1 X269.247 Y86.698 E.03305
G1 X269.578 Y87.552 E.03305
G1 X269.746 Y88.452 E.03305
G1 X269.746 Y89.367 E.03305
G1 X269.578 Y90.267 E.03305
G1 X269.247 Y91.121 E.03305
G1 X268.766 Y91.899 E.03305
G1 X268.149 Y92.575 E.03305
G1 X267.418 Y93.127 E.03305
G1 X266.599 Y93.535 E.03305
G1 X265.718 Y93.786 E.03305
G1 X264.807 Y93.87 E.03305
G1 X263.895 Y93.786 E.03305
G1 X263.015 Y93.535 E.03305
G1 X262.195 Y93.127 E.03305
G1 X261.465 Y92.575 E.03305
G1 X260.848 Y91.899 E.03305
G1 X260.366 Y91.121 E.03305
G1 X260.035 Y90.267 E.03305
G1 X259.867 Y89.367 E.03305
G1 X259.867 Y88.452 E.03305
G1 X260.035 Y87.552 E.03305
G1 X260.366 Y86.698 E.03305
G1 X260.848 Y85.92 E.03305
G1 X261.465 Y85.243 E.03305
G1 X262.195 Y84.692 E.03305
G1 X262.555 Y84.512 E.01452
G1 X262.425 Y85.091 F30000
;TYPE:Outer wall
G1 F3000
G1 X262.437 Y85.082 E.00056
G1 X263.181 Y84.712 E.02999
G1 X263.98 Y84.484 E.02999
G1 X264.389 Y84.446 E.01485
G1 X264.798 Y84.409 E.01483
G1 X265.634 Y84.484 E.03029
G1 X266.433 Y84.712 E.03001
G1 X267.177 Y85.082 E.02999
G1 X267.84 Y85.583 E.02999
G1 X268.399 Y86.197 E.02999
G1 X268.837 Y86.903 E.02999
G1 X269.137 Y87.677 E.02999
G1 X269.289 Y88.494 E.02999
G1 X269.289 Y89.325 E.02999
G1 X269.137 Y90.141 E.02999
G1 X268.837 Y90.916 E.02999
G1 X268.399 Y91.622 E.02999
G1 X267.84 Y92.236 E.02999
G1 X267.177 Y92.737 E.02999
G1 X266.433 Y93.107 E.02999
G1 X265.634 Y93.334 E.02999
G1 X264.807 Y93.411 E.02999
G1 X263.98 Y93.334 E.02999
G1 X263.181 Y93.107 E.02999
G1 X262.437 Y92.737 E.02999
G1 X261.774 Y92.236 E.02999
G1 X261.214 Y91.622 E.02999
G1 X260.996 Y91.269 E.015
G1 X260.777 Y90.916 E.015
G1 X260.477 Y90.141 E.02999
G1 X260.324 Y89.325 E.02999
G1 X260.324 Y88.494 E.02999
G1 X260.477 Y87.677 E.02999
G1 X260.777 Y86.903 E.02999
G1 X261.214 Y86.197 E.02999
G1 X261.774 Y85.583 E.02999
G1 X262.393 Y85.115 E.02799
G1 E-.42 F2400
;WIPE_START
G1 F3000
G1 X262.437 Y85.082 E-.00997
G1 X263.181 Y84.712 E-.14953
G1 X263.29 Y84.681 E-.02049
;WIPE_END
G1 X258.073 Y86.578 Z.6 F30000
G1 Z.2
G1 E.6 F2400
;TYPE:Inner wall
G1 F3000
G1 X258.209 Y86.177 E.01526
G1 X258.629 Y85.33 E.03414
G1 X259.141 Y84.562 E.03333
G1 X259.757 Y83.86 E.03373
G1 X260.46 Y83.244 E.03373
G1 X261.236 Y82.725 E.03373
G1 X262.074 Y82.312 E.03373
G1 X262.959 Y82.012 E.03373
G1 X263.874 Y81.83 E.0337
G1 X264.818 Y81.769 E.03414
G1 X265.107 Y81.788 E.01045
G1 X265.739 Y81.829 E.02288
G1 X266.655 Y82.012 E.03373
G1 X267.54 Y82.312 E.03373
G1 X268.377 Y82.725 E.03373
G1 X269.154 Y83.244 E.03373
G1 X269.856 Y83.86 E.0337
G1 X270.478 Y84.571 E.03414
G1 X270.991 Y85.339 E.03333
G1 X271.404 Y86.177 E.03373
G1 X271.705 Y87.061 E.03373
G1 X271.887 Y87.977 E.03373
G1 X271.948 Y88.909 E.0337
G1 X271.885 Y89.852 E.03414
G1 X271.705 Y90.758 E.03333
G1 X271.404 Y91.642 E.0337
G1 X270.985 Y92.489 E.03414
G1 X270.472 Y93.257 E.03333
G1 X269.856 Y93.959 E.03373
G1 X269.154 Y94.575 E.03373
G1 X268.377 Y95.094 E.03373
G1 X267.54 Y95.507 E.03373
G1 X266.655 Y95.807 E.03373
G1 X265.739 Y95.989 E.03373
G1 X264.807 Y96.051 E.03373
G1 X263.875 Y95.989 E.03373
G1 X262.959 Y95.807 E.03373
G1 X262.075 Y95.507 E.0337
G1 X261.227 Y95.088 E.03414
G1 X260.46 Y94.575 E.03333
G1 X259.758 Y93.959 E.0337
G1 X259.135 Y93.247 E.03414
G1 X258.622 Y92.48 E.03333
G1 X258.21 Y91.643 E.0337
G1 X257.907 Y90.747 E.03414
G1 X257.727 Y89.842 E.03333
G1 X257.666 Y88.91 E.0337
G1 X257.729 Y87.967 E.03414
G1 X257.909 Y87.061 E.03333
G1 X258.06 Y86.615 E.017
G1 X257.48 Y86.904 F30000
;TYPE:Outer wall
G1 F3000
G1 X257.786 Y86.002 E.03441
G1 X258.232 Y85.1 E.03631
G1 X258.778 Y84.283 E.03548
G1 X259.433 Y83.536 E.03589
G1 X260.181 Y82.881 E.03589
G1 X261.007 Y82.328 E.03589
G1 X261.899 Y81.889 E.03589
G1 X262.84 Y81.569 E.03589
G1 X263.815 Y81.375 E.03588
G1 X264.818 Y81.311 E.03631
G1 X265.136 Y81.332 E.01152
G1 X265.799 Y81.375 E.02396
G1 X266.774 Y81.569 E.03589
G1 X267.715 Y81.889 E.03589
G1 X268.606 Y82.328 E.03589
G1 X269.433 Y82.881 E.03589
G1 X270.18 Y83.536 E.03588
G1 X270.842 Y84.293 E.03631
G1 X271.388 Y85.11 E.03548
G1 X271.827 Y86.001 E.03589
G1 X272.147 Y86.943 E.03589
G1 X272.341 Y87.918 E.03589
G1 X272.406 Y88.909 E.03588
G1 X272.339 Y89.912 E.03631
G1 X272.147 Y90.876 E.03548
G1 X271.828 Y91.817 E.03588
G1 X271.382 Y92.718 E.03631
G1 X270.836 Y93.535 E.03548
G1 X270.18 Y94.283 E.03589
G1 X269.433 Y94.938 E.03589
G1 X268.606 Y95.49 E.03589
G1 X267.715 Y95.93 E.03589
G1 X266.774 Y96.25 E.03589
G1 X265.799 Y96.444 E.03589
G1 X264.807 Y96.509 E.03589
G1 X263.815 Y96.444 E.03589
G1 X262.84 Y96.25 E.03589
G1 X261.899 Y95.93 E.03588
G1 X260.998 Y95.484 E.03631
G1 X260.181 Y94.938 E.03548
G1 X259.434 Y94.283 E.03588
G1 X258.772 Y93.526 E.03631
G1 X258.226 Y92.709 E.03548
G1 X257.786 Y91.818 E.03588
G1 X257.464 Y90.865 E.03631
G1 X257.273 Y89.901 E.03548
G1 X257.208 Y88.91 E.03588
G1 X257.275 Y87.906 E.03631
G1 X257.467 Y86.943 E.03548
G1 X257.467 Y86.942 E.00003
G1 E-.42 F2400
;WIPE_START
G1 F3000
G1 X257.786 Y86.002 E-.17874
G1 X257.789 Y85.995 E-.00126
;WIPE_END
G1 X265.41 Y85.577 Z.6 F30000
G1 X270.814 Y85.28 Z.6
G1 Z.2
G1 E.6 F2400
;TYPE:Bottom surface
;WIDTH:0.512881
G1 F5020
G1 X269.56 Y84.026 E.06585
G1 X268.959 Y83.498 E.02969
G1 X268.217 Y83.003 E.03312
G1 X267.537 Y82.668 E.02813
G1 X271.049 Y86.179 E.18435
G1 X271.108 Y86.299 E.00499
G1 X271.406 Y87.201 E.03525
G1 X266.515 Y82.31 E.25678
G1 X265.687 Y82.147 E.03133
G1 X271.569 Y88.029 E.30883
G1 X271.616 Y88.74 E.02646
G1 X269.601 Y86.725 E.10579
G1 X269.535 Y86.555 E.00677
G1 X269.022 Y85.726 E.03619
G1 X268.365 Y85.006 E.03619
G1 X267.587 Y84.419 E.03619
G1 X267.004 Y84.128 E.02421
G1 X264.976 Y82.1 E.10646
G2 X264.332 Y82.121 I-.242 J2.483 E.02398
G1 X265.989 Y83.777 E.08697
G1 X265.776 Y83.717 E.0082
G1 X265.212 Y83.666 E.02101
G1 X263.731 Y82.184 E.07779
G1 X263.176 Y82.295 E.02098
G1 X264.535 Y83.653 E.0713
G1 X263.926 Y83.709 E.02268
G1 X262.666 Y82.449 E.06616
G1 X262.173 Y82.62 E.01939
G1 X263.395 Y83.843 E.06419
G1 X262.881 Y83.993 E.0199
G1 X261.728 Y82.839 E.06055
G2 X261.294 Y83.071 I.663 J1.761 E.01828
G1 X262.437 Y84.214 E.06
G1 X261.998 Y84.439 E.01832
G1 X260.896 Y83.337 E.05787
G2 X260.515 Y83.621 I.887 J1.589 E.01768
G1 X261.62 Y84.725 E.05799
G1 X261.242 Y85.013 E.01761
G1 X260.161 Y83.931 E.05676
G2 X259.829 Y84.264 I1.096 J1.428 E.0175
G1 X260.925 Y85.36 E.05757
G1 X260.608 Y85.708 E.01747
G1 X259.518 Y84.618 E.05723
G2 X259.234 Y84.999 I1.305 J1.268 E.01768
G1 X260.351 Y86.115 E.05861
G1 X260.097 Y86.526 E.01792
G1 X258.968 Y85.397 E.05924
G2 X258.737 Y85.831 I1.551 J1.103 E.01829
G1 X259.906 Y87 E.06136
G1 X259.723 Y87.481 E.01913
G1 X258.517 Y86.276 E.0633
G1 X258.346 Y86.769 E.01939
G1 X259.618 Y88.041 E.0668
G2 X259.547 Y88.635 I1.552 J.487 E.02231
G1 X258.192 Y87.279 E.07116
G1 X258.082 Y87.834 E.02098
G1 X259.547 Y89.299 E.07695
G1 X259.547 Y89.397 E.00362
G1 X259.678 Y90.094 E.02634
G1 X257.825 Y88.242 E.09726
G1 E-.42 F2400
;WIPE_START
G1 F6300
G1 X258.532 Y88.949 E-.18
;WIPE_END
G1 X266.096 Y87.93 Z.6 F30000
G1 X269.661 Y87.45 Z.6
G1 Z.2
G1 E.6 F2400
G1 F5020
G1 X271.595 Y89.384 E.10154
G3 X271.532 Y89.985 I-2.341 J.057 E.02251
G1 X270.066 Y88.52 E.07695
G1 X270.066 Y89.184 E.02467
G1 X271.422 Y90.54 E.07116
G3 X271.267 Y91.05 I-2.015 J-.331 E.01985
G1 X269.995 Y89.778 E.0668
G1 X269.89 Y90.338 E.02115
G1 X271.096 Y91.543 E.0633
G1 X270.876 Y91.988 E.01842
G1 X269.707 Y90.819 E.06136
G1 X269.517 Y91.293 E.01897
G1 X270.645 Y92.422 E.05924
G1 X270.379 Y92.82 E.01779
G1 X269.263 Y91.704 E.05861
G1 X269.005 Y92.111 E.01788
G1 X270.095 Y93.201 E.05723
G1 X269.785 Y93.555 E.01748
G1 X268.688 Y92.459 E.05757
G1 X268.371 Y92.806 E.01747
G1 X269.452 Y93.887 E.05676
G1 X269.098 Y94.198 E.01748
G1 X267.994 Y93.093 E.05799
G1 X267.615 Y93.379 E.01762
G1 X268.717 Y94.482 E.05787
G1 X268.319 Y94.748 E.01779
G1 X267.176 Y93.605 E.06
G1 X266.732 Y93.826 E.0184
G1 X267.886 Y94.979 E.06055
G1 X267.441 Y95.199 E.01842
G1 X266.218 Y93.976 E.06419
G1 X265.777 Y94.102 E.01701
G1 X265.687 Y94.11 E.00336
G1 X266.947 Y95.37 E.06616
G3 X266.437 Y95.524 I-.841 J-1.861 E.01985
G1 X265.079 Y94.166 E.0713
G3 X264.402 Y94.154 I-.306 J-1.817 E.02528
G1 X265.883 Y95.635 E.07773
G3 X265.282 Y95.699 I-.544 J-2.249 E.02248
G1 X263.326 Y93.743 E.1027
G1 E-.42 F2400
;WIPE_START
G1 F6300
G1 X264.033 Y94.45 E-.18
;WIPE_END
G1 X264.852 Y95.933 Z.6 F30000
G1 Z.2
G1 E.6 F2400
G1 F5020
G1 X262.61 Y93.691 E.11771
G1 X262.026 Y93.4 E.0242
G1 X261.248 Y92.813 E.03619
G1 X260.592 Y92.093 E.03619
G1 X260.078 Y91.264 E.03619
G1 X260.013 Y91.094 E.00677
G1 X257.997 Y89.079 E.1058
G1 X258.044 Y89.79 E.02646
G1 X263.926 Y95.672 E.30882
G1 X263.098 Y95.509 E.03133
G1 X258.207 Y90.618 E.25677
G1 X258.506 Y91.52 E.03528
G1 X258.565 Y91.64 E.00496
G1 X262.075 Y95.151 E.1843
G1 X261.388 Y94.81 E.02849
G1 X260.655 Y94.32 E.03272
G1 X260.053 Y93.792 E.02973
G1 X258.799 Y92.539 E.06579
G1 X258.924 Y92.415 F30000
;TYPE:Gap infill
;WIDTH:0.145621
G1 F3000
G1 X258.864 Y92.341 E.00077
;WIDTH:0.141526
G1 X258.769 Y92.209 E.00126
G1 X259.727 Y90.476 F30000
;WIDTH:0.109791
G1 F3000
G1 X259.804 Y90.293 E.00105
G1 E-.44144 F2400
;WIPE_START
G1 F3000
G1 X259.727 Y90.476 E-.15856
;WIPE_END
G1 X266.719 Y87.415 Z.6 F30000
G1 X270.844 Y85.61 Z.6
G1 Z.2
G1 E.6 F2400
;WIDTH:0.119686
G1 F3000
G1 X270.75 Y85.478 E.00098
;WIDTH:0.141603
G1 X270.69 Y85.405 E.00074
; stop printing object coupling_motor_lead_screw.stl id:0 copy 0
;TIME_ELAPSED:10.254948

M106 S255
;LAYER_CHANGE
;Z:0.36
;HEIGHT:0.16
;BEFORE_LAYER_CHANGE
;0.36
G92 E0

G1 E-.52397 F2400
;WIPE_START
G1 F3000
G1 X270.75 Y85.478 E-.07603
;WIPE_END
EXCLUDE_OBJECT_END NAME=coupling_motor_lead_screw.stl_id_0_copy_0
;AFTER_LAYER_CHANGE
;0.36
;_SET_FAN_SPEED_CHANGING_LAYER
SET_VELOCITY_LIMIT ACCEL=10000 ACCEL_TO_DECEL=10000
M140 S50 ; set bed temperature
; printing object coupling_motor_lead_screw.stl id:0 copy 0
EXCLUDE_OBJECT_START NAME=coupling_motor_lead_screw.stl_id_0_copy_0
G17
G3 Z.6 I.12 J-1.211 P1  F30000
G1 X262.76 Y84.686 Z.6
G1 Z.36
G1 E.6 F2400
SET_VELOCITY_LIMIT ACCEL=5000 ACCEL_TO_DECEL=5000
;TYPE:Inner wall
;WIDTH:0.45
G1 F4018
G1 X263.104 Y84.514 E.0101
G1 X263.941 Y84.276 E.02285
G1 X264.727 Y84.204 E.02074
G1 X264.807 Y84.196 E.0021
G1 X265.673 Y84.276 E.02285
G1 X266.509 Y84.514 E.02285
G1 X267.288 Y84.902 E.02285
G1 X267.982 Y85.426 E.02285
G1 X268.568 Y86.069 E.02285
G1 X269.026 Y86.809 E.02285
G1 X269.34 Y87.62 E.02285
G1 X269.5 Y88.475 E.02285
G1 X269.5 Y89.344 E.02285
G1 X269.34 Y90.199 E.02285
G1 X269.026 Y91.01 E.02285
G1 X268.61 Y91.682 E.02074
G1 X268.568 Y91.75 E.0021
G1 X267.982 Y92.393 E.02285
M73 P1 R17
G1 X267.288 Y92.917 E.02285
G1 X266.509 Y93.304 E.02285
G1 X265.673 Y93.542 E.02285
G1 X264.807 Y93.623 E.02285
G1 X263.941 Y93.542 E.02285
G1 X263.104 Y93.304 E.02285
G1 X262.326 Y92.917 E.02285
G1 X261.631 Y92.393 E.02285
G1 X261.045 Y91.75 E.02285
G1 X260.588 Y91.01 E.02285
G1 X260.273 Y90.199 E.02285
G1 X260.114 Y89.344 E.02285
G1 X260.114 Y88.475 E.02285
G1 X260.273 Y87.62 E.02285
G1 X260.588 Y86.809 E.02285
G1 X261.045 Y86.069 E.02285
G1 X261.631 Y85.426 E.02285
G1 X262.326 Y84.902 E.02285
G1 X262.724 Y84.704 E.01169
SET_VELOCITY_LIMIT ACCEL=10000 ACCEL_TO_DECEL=10000
G1 X262.537 Y85.244 F30000
SET_VELOCITY_LIMIT ACCEL=5000 ACCEL_TO_DECEL=5000
;TYPE:Outer wall
;WIDTH:0.42
G1 F4018
G1 X263.249 Y84.89 E.01939
G1 X264.015 Y84.672 E.01939
G1 X264.764 Y84.602 E.01834
G1 X265.599 Y84.672 E.02042
G1 X266.364 Y84.89 E.01939
G1 X267.076 Y85.244 E.01939
G1 X267.711 Y85.724 E.01939
G1 X268.247 Y86.312 E.01939
G1 X268.666 Y86.988 E.01939
G1 X268.953 Y87.73 E.01939
G1 X269.099 Y88.512 E.01939
G1 X269.099 Y89.307 E.01939
G1 X268.953 Y90.089 E.01939
G1 X268.666 Y90.831 E.01939
G1 X268.27 Y91.471 E.01834
G1 X267.711 Y92.095 E.02042
G1 X267.076 Y92.575 E.01939
G1 X266.364 Y92.929 E.01939
G1 X265.599 Y93.147 E.01939
G1 X264.807 Y93.22 E.01939
G1 X264.015 Y93.147 E.01939
G1 X263.249 Y92.929 E.01939
G1 X262.537 Y92.575 E.01939
G1 X261.903 Y92.095 E.01939
G1 X261.367 Y91.507 E.01939
G1 X260.948 Y90.831 E.01939
G1 X260.66 Y90.089 E.01939
G1 X260.514 Y89.307 E.01939
G1 X260.514 Y88.512 E.01939
G1 X260.66 Y87.73 E.01939
G1 X260.948 Y86.988 E.01939
G1 X261.367 Y86.312 E.01939
G1 X261.903 Y85.724 E.01939
G1 X262.505 Y85.268 E.01841
SET_VELOCITY_LIMIT ACCEL=10000 ACCEL_TO_DECEL=10000
G1 E-.42 F2400
;WIPE_START
G1 F12000
G1 X263.249 Y84.89 E-.15028
G1 X263.408 Y84.844 E-.02972
;WIPE_END
G1 X257.822 Y86.55 Z.76 F30000
G1 Z.36
G1 E.6 F2400
SET_VELOCITY_LIMIT ACCEL=5000 ACCEL_TO_DECEL=5000
;TYPE:Inner wall
;WIDTH:0.45
G1 F4018
G1 X257.981 Y86.082 E.01298
G1 X258.409 Y85.215 E.02538
G1 X258.945 Y84.412 E.02539
G1 X259.583 Y83.685 E.02538
G1 X260.309 Y83.048 E.02539
G1 X261.113 Y82.511 E.02538
G1 X261.979 Y82.084 E.02538
G1 X262.895 Y81.773 E.02539
G1 X263.842 Y81.585 E.02538
G1 X264.807 Y81.521 E.02539
G1 X265.771 Y81.585 E.02538
G1 X266.719 Y81.773 E.02538
G1 X267.634 Y82.084 E.02539
G1 X268.501 Y82.511 E.02539
G1 X269.304 Y83.048 E.02538
G1 X270.031 Y83.685 E.02539
G1 X270.668 Y84.412 E.02538
G1 X271.205 Y85.215 E.02539
G1 X271.632 Y86.082 E.02538
G1 X271.943 Y86.997 E.02539
G1 X272.132 Y87.945 E.02538
G1 X272.195 Y88.909 E.02539
G1 X272.132 Y89.874 E.02539
G1 X271.943 Y90.822 E.02538
G1 X271.632 Y91.737 E.02539
G1 X271.205 Y92.603 E.02538
G1 X270.668 Y93.407 E.02538
G1 X270.031 Y94.134 E.02539
G1 X269.304 Y94.771 E.02538
G1 X268.501 Y95.308 E.02539
G1 X267.634 Y95.735 E.02538
G1 X266.719 Y96.046 E.02539
G1 X265.771 Y96.234 E.02538
G1 X264.807 Y96.297 E.02539
G1 X263.842 Y96.234 E.02539
